<?xml version="1.0" encoding="UTF-8"?>
<map version="1.10" tiledversion="1.12.2" orientation="orthogonal" renderorder="right-down" width="30" height="20" tilewidth="32" tileheight="32" infinite="1" nextlayerid="15" nextobjectid="448">
 <editorsettings>
  <export target="../raw-assets/json/map/testMap1.json" format="json"/>
 </editorsettings>
 <tileset firstgid="1" name="tileset" tilewidth="32" tileheight="32" tilecount="13" columns="13">
  <image source="grounds.png" width="416" height="32"/>
 </tileset>
 <tileset firstgid="14" name="resources" tilewidth="32" tileheight="32" tilecount="11" columns="11">
  <image source="resources.png" width="352" height="32"/>
 </tileset>
 <tileset firstgid="25" name="models" tilewidth="128" tileheight="117" tilecount="23" columns="0">
  <grid orientation="orthogonal" width="1" height="1"/>
  <tile id="0">
   <properties>
    <property name="solid" type="bool" value="true"/>
   </properties>
   <image source="models/pizza-model-snapshots_Pirate--Crate__34x42.png" width="34" height="42"/>
  </tile>
  <tile id="1">
   <properties>
    <property name="solid" type="bool" value="true"/>
   </properties>
   <image source="models/pizza-model-snapshots_Props--Fence__35x8.png" width="35" height="8"/>
  </tile>
  <tile id="2">
   <properties>
    <property name="offsetY" type="float" value="-1"/>
   </properties>
   <image source="models/pizza-model-snapshots_Props--Bridge__33x26.png" width="33" height="26"/>
  </tile>
  <tile id="3">
   <properties>
    <property name="offsetY" type="float" value="-0.3"/>
   </properties>
   <image source="models/pizza-model-snapshots_Pirate--Platform__80x80.png" width="80" height="80"/>
  </tile>
  <tile id="4">
   <image source="models/pizza-model-snapshots_Pirate--TowerCompleteLarge__116x116.png" width="116" height="116"/>
  </tile>
  <tile id="5">
   <image source="models/pizza-model-snapshots_Pirate--TowerCompleteSmall__107x117.png" width="107" height="117"/>
  </tile>
  <tile id="14">
   <image source="models/pizza-model-snapshots_Survival--TentCanvas__18x18.png" width="18" height="18"/>
  </tile>
  <tile id="15">
   <properties>
    <property name="solid" type="bool" value="true"/>
   </properties>
   <image source="models/pizza-model-snapshots_Restaurant--TableMediumLong__96x48.png" width="96" height="48"/>
  </tile>
  <tile id="16">
   <image source="models/pizza-model-snapshots_Restaurant--ChairA__32x32.png" width="32" height="32"/>
  </tile>
  <tile id="17">
   <properties>
    <property name="offsetY" type="float" value="0.101"/>
   </properties>
   <image source="models/pizza-model-snapshots_Restaurant--FloorKitchenSmall__64x64.png" width="64" height="64"/>
  </tile>
  <tile id="18">
   <properties>
    <property name="offsetY" type="float" value="0.105"/>
   </properties>
   <image source="models/pizza-model-snapshots_Restaurant--FloorKitchenSmallStyleB__64x64.png" width="64" height="64"/>
  </tile>
  <tile id="19">
   <properties>
    <property name="solid" type="bool" value="true"/>
   </properties>
   <image source="models/pizza-model-snapshots_Store--Wall__128x16.png" width="128" height="16"/>
  </tile>
  <tile id="20">
   <properties>
    <property name="solid" type="bool" value="true"/>
   </properties>
   <image source="models/pizza-model-snapshots_Store--WallWindowClosed__128x16.png" width="128" height="16"/>
  </tile>
  <tile id="21">
   <properties>
    <property name="solid" type="bool" value="true"/>
   </properties>
   <image source="models/pizza-model-snapshots_Store--WallWindowOpen__128x16.png" width="128" height="16"/>
  </tile>
  <tile id="22">
   <properties>
    <property name="solid" type="bool" value="true"/>
   </properties>
   <image source="models/pizza-model-snapshots_Store--DeskDecorated__96x49.png" width="96" height="49"/>
  </tile>
  <tile id="23">
   <properties>
    <property name="solid" type="bool" value="true"/>
   </properties>
   <image source="models/pizza-model-snapshots_Store--WallHalf__64x16.png" width="64" height="16"/>
  </tile>
  <tile id="24">
   <properties>
    <property name="solid" type="bool" value="true"/>
   </properties>
   <image source="models/pizza-model-snapshots_Restaurant--PillarA__19x19.png" width="19" height="19"/>
  </tile>
  <tile id="25">
   <properties>
    <property name="solid" type="bool" value="true"/>
   </properties>
   <image source="models/pizza-model-snapshots_Restaurant--PillarB__32x32.png" width="32" height="32"/>
  </tile>
  <tile id="26">
   <properties>
    <property name="solid" type="bool" value="true"/>
   </properties>
   <image source="models/pizza-model-snapshots_Store--CouchPillows__96x51.png" width="96" height="51"/>
  </tile>
  <tile id="27">
   <properties>
    <property name="solid" type="bool" value="true"/>
   </properties>
   <image source="models/pizza-model-snapshots_Store--CashRegister__27x27.png" width="27" height="27"/>
   <objectgroup draworder="index" id="2">
    <object id="1" x="0.439954" y="0.703927" width="12.4067" height="25.1654"/>
    <object id="2" x="11.2628" y="11.2628" width="15.1344" height="15.1344">
     <properties>
      <property name="isSolid" type="bool" value="true"/>
     </properties>
    </object>
   </objectgroup>
  </tile>
  <tile id="28">
   <properties>
    <property name="solid" type="bool" value="true"/>
   </properties>
   <image source="models/pizza-model-snapshots_Deco--ContainersBoxLarge__24x24.png" width="24" height="24"/>
  </tile>
  <tile id="29">
   <properties>
    <property name="solid" type="bool" value="true"/>
   </properties>
   <image source="models/pizza-model-snapshots_Deco--ContainersBoxLargeDirty__24x28.png" width="24" height="28"/>
  </tile>
  <tile id="30">
   <properties>
    <property name="solid" type="bool" value="true"/>
   </properties>
   <image source="models/pizza-model-snapshots_Deco--Plants15__16x10.png" width="16" height="10"/>
  </tile>
 </tileset>
 <layer id="1" name="groundLayer" width="30" height="20" opacity="0.41">
  <data encoding="csv">
   <chunk x="-32" y="-32" width="16" height="16">
3,3,3,3,3,3,3,3,3,3,3,3,3,3,3,3,
3,3,3,3,3,3,3,3,3,3,3,3,3,3,3,3,
3,3,3,3,3,3,3,3,3,3,3,3,3,3,3,3,
3,3,3,3,3,3,3,3,3,3,3,3,3,3,3,3,
3,3,3,3,3,3,3,3,3,3,3,3,3,3,3,3,
3,3,3,3,3,3,3,3,3,3,3,3,3,3,3,3,
3,3,3,3,3,3,3,3,3,3,3,3,3,3,3,3,
3,3,3,3,3,3,3,3,3,3,3,3,3,3,3,3,
3,3,3,3,3,3,3,3,3,3,3,3,3,3,3,3,
3,3,3,3,3,3,3,3,3,3,3,3,3,3,3,3,
3,3,3,3,3,3,3,3,3,3,3,3,3,3,3,3,
3,3,3,3,3,3,3,3,3,3,3,3,3,3,3,3,
3,3,3,3,3,3,3,3,3,3,3,3,3,3,3,3,
3,3,3,3,3,3,3,3,3,3,3,3,3,3,3,3,
3,3,3,3,3,3,3,3,3,3,3,3,3,3,3,3,
3,3,3,3,3,3,3,3,3,3,3,3,3,3,3,3
</chunk>
   <chunk x="-16" y="-32" width="16" height="16">
3,3,3,3,3,3,3,3,3,3,3,3,3,3,3,3,
3,3,3,3,3,3,3,3,3,3,3,3,3,3,3,3,
3,3,3,3,3,3,3,3,3,3,3,3,3,3,3,3,
3,3,3,3,3,3,3,3,3,3,3,3,3,3,3,3,
3,3,3,3,3,3,3,3,3,3,3,3,3,3,3,3,
3,3,3,3,3,3,3,3,3,3,3,3,3,3,3,3,
3,3,3,3,3,3,3,3,3,3,3,3,3,3,3,3,
3,3,3,3,3,3,3,3,3,3,3,3,3,3,3,3,
3,3,3,3,3,3,3,3,3,3,3,3,3,3,3,3,
3,3,3,3,3,3,3,3,3,3,3,3,3,3,3,3,
3,3,3,3,3,3,3,3,3,3,3,3,3,3,3,3,
3,3,3,3,3,3,3,3,3,3,3,3,3,3,3,3,
3,3,3,3,3,3,3,3,3,3,3,3,3,3,3,3,
3,3,3,3,3,3,3,3,3,3,3,3,3,3,3,3,
3,3,3,3,3,3,3,3,3,3,3,3,3,3,3,3,
3,3,3,3,3,3,3,3,3,3,3,3,3,3,3,3
</chunk>
   <chunk x="0" y="-32" width="16" height="16">
3,3,3,3,3,3,3,3,3,3,3,3,3,3,3,3,
3,3,3,3,3,3,3,3,3,3,3,3,3,3,3,3,
3,3,3,3,3,3,3,3,3,3,3,3,3,3,3,3,
3,3,3,3,3,3,3,3,3,3,3,3,3,3,3,3,
3,3,3,3,3,3,3,3,3,3,3,3,3,3,3,3,
3,3,3,3,3,3,3,3,3,3,3,3,3,3,3,3,
3,3,3,3,3,3,3,3,3,3,3,3,3,3,3,3,
3,3,3,3,3,3,3,3,3,3,3,3,3,3,3,3,
3,3,3,3,3,3,3,3,3,3,3,3,3,3,3,3,
3,3,3,3,3,3,3,3,3,3,3,3,3,3,3,3,
3,3,3,3,3,3,3,3,3,3,3,3,3,3,3,3,
3,3,3,3,3,3,3,3,3,3,3,3,3,3,3,3,
3,3,3,3,3,3,3,3,3,3,3,3,3,3,3,3,
3,3,3,3,3,3,3,3,3,3,3,3,3,3,3,3,
3,3,3,3,3,3,3,3,3,3,3,3,3,3,3,3,
3,3,3,3,3,3,3,3,3,3,3,3,3,3,3,3
</chunk>
   <chunk x="16" y="-32" width="16" height="16">
3,3,3,3,3,3,3,3,3,3,3,3,3,3,3,3,
3,3,3,3,3,3,3,3,3,3,3,3,3,3,3,3,
3,3,3,3,3,3,3,3,3,3,3,3,3,3,3,3,
3,3,3,3,3,3,3,3,3,3,3,3,3,3,3,3,
3,3,3,3,3,3,3,3,3,3,3,3,3,3,3,3,
3,3,3,3,3,3,3,3,3,3,3,3,3,3,3,3,
3,3,3,3,3,3,3,3,3,3,3,3,3,3,3,3,
3,3,3,3,3,3,3,3,3,3,3,3,3,3,3,3,
3,3,3,3,3,3,3,3,3,3,3,3,3,3,3,3,
3,3,3,3,3,3,3,3,3,3,3,3,3,3,3,3,
3,3,3,3,3,3,3,3,3,3,3,3,3,3,3,3,
3,3,3,3,3,3,3,3,3,3,3,3,3,3,3,3,
3,3,3,3,3,3,3,3,3,3,3,3,3,3,3,3,
3,3,3,3,3,3,3,3,3,3,3,3,3,3,3,3,
3,3,3,3,3,3,3,3,3,3,3,3,3,3,3,3,
3,3,3,3,3,3,3,3,3,3,3,3,3,3,3,3
</chunk>
   <chunk x="32" y="-32" width="16" height="16">
3,3,3,3,3,3,3,3,3,3,3,3,3,3,3,3,
3,3,3,3,3,3,3,3,3,3,3,3,3,3,3,3,
3,3,3,3,3,3,3,3,3,3,3,3,3,3,3,3,
3,3,3,3,3,3,3,3,3,3,3,3,3,3,3,3,
3,3,3,3,3,3,3,3,3,3,3,3,3,3,3,3,
3,3,3,3,3,3,3,3,3,3,3,3,3,3,3,3,
3,3,3,3,3,3,3,3,3,3,3,3,3,3,3,3,
3,3,3,3,3,3,3,3,3,3,3,3,3,3,3,3,
3,3,3,3,3,3,3,3,3,3,3,3,3,3,3,3,
3,3,3,3,3,3,3,3,3,3,3,3,3,3,3,3,
3,3,3,3,3,3,3,3,3,3,3,3,3,3,3,3,
3,3,3,3,3,3,3,3,3,3,3,3,3,3,3,3,
3,3,3,3,3,3,3,3,3,3,3,3,3,3,3,3,
3,3,3,3,3,3,3,3,3,3,3,3,3,3,3,3,
3,3,3,3,3,3,3,3,3,3,3,3,3,3,3,3,
3,3,3,3,3,3,3,3,3,3,3,3,3,3,3,3
</chunk>
   <chunk x="48" y="-32" width="16" height="16">
3,3,3,3,3,3,3,3,3,3,3,3,3,3,3,3,
3,3,3,3,3,3,3,3,3,3,3,3,3,3,3,3,
3,3,3,3,3,3,3,3,3,3,3,3,3,3,3,3,
3,3,3,3,3,3,3,3,3,3,3,3,3,3,3,3,
3,3,3,3,3,3,3,3,3,3,3,3,3,3,3,3,
3,3,3,3,3,3,3,3,3,3,3,3,3,3,3,3,
3,3,3,3,3,3,3,3,3,3,3,3,3,3,3,3,
3,3,3,3,3,3,3,3,3,3,3,3,3,3,3,3,
3,3,3,3,3,3,3,3,3,3,3,3,3,3,3,3,
3,3,3,3,3,3,3,3,3,3,3,3,3,3,3,3,
3,3,3,3,3,3,3,3,3,3,3,3,3,3,3,3,
3,3,3,3,3,3,3,3,3,3,3,3,3,3,3,3,
3,3,3,3,3,3,3,3,3,3,3,3,3,3,3,3,
3,3,3,3,3,3,3,3,3,3,3,3,3,3,3,3,
3,3,3,3,3,3,3,3,3,3,3,3,3,3,3,3,
3,3,3,3,3,3,3,3,3,3,3,3,3,3,3,3
</chunk>
   <chunk x="-32" y="-16" width="16" height="16">
3,3,3,3,3,3,3,3,3,3,3,3,3,3,3,3,
3,3,3,3,3,3,3,3,3,3,3,3,3,3,3,3,
3,3,3,3,3,3,3,3,3,3,3,3,3,3,3,3,
3,3,3,3,3,3,3,3,3,3,3,3,3,3,3,3,
3,3,3,3,3,3,3,3,3,3,3,3,3,3,3,3,
3,3,3,3,3,3,3,3,3,3,3,3,3,3,3,3,
3,3,3,3,3,3,3,3,3,3,3,3,3,3,3,3,
3,3,3,3,3,3,3,3,3,3,3,3,3,3,3,3,
3,3,3,3,3,3,3,3,3,3,3,3,3,3,3,3,
3,3,3,3,3,3,3,3,3,3,3,3,3,3,3,3,
3,3,3,3,3,3,3,3,3,3,3,3,3,3,3,3,
3,3,3,3,3,3,3,3,3,3,3,3,3,3,3,3,
3,3,3,3,3,3,3,3,3,3,3,3,3,3,3,3,
3,3,3,3,3,3,3,3,3,3,3,3,3,3,3,3,
3,3,3,3,3,3,3,3,3,3,3,3,3,3,3,3,
3,3,3,3,3,3,3,3,3,3,3,3,3,3,3,3
</chunk>
   <chunk x="-16" y="-16" width="16" height="16">
3,3,3,3,3,3,3,3,3,3,3,3,3,3,3,3,
3,3,3,3,3,3,3,3,3,3,3,3,3,3,3,3,
3,3,3,3,3,3,3,3,3,3,3,3,3,3,3,3,
3,3,3,3,3,3,3,3,3,3,3,3,3,3,3,3,
3,3,3,3,3,3,3,3,3,3,3,3,3,3,3,3,
3,3,3,3,3,3,3,3,3,3,3,3,3,3,3,3,
3,3,3,3,3,3,3,3,3,3,3,3,3,3,3,3,
3,3,3,3,3,3,3,3,3,3,3,3,3,3,3,3,
3,3,3,3,3,3,3,3,3,3,3,3,3,3,3,3,
3,3,3,3,3,3,3,3,3,3,3,3,3,3,3,3,
3,3,3,3,3,3,3,3,3,3,3,3,3,3,3,3,
3,3,3,3,3,3,3,3,3,3,3,3,3,3,3,3,
3,3,3,3,3,3,3,3,3,3,3,3,3,3,3,3,
3,3,3,3,3,3,3,3,3,3,3,3,3,3,3,3,
3,3,3,3,3,3,3,3,3,3,3,3,3,3,3,3,
3,3,3,3,3,3,3,3,3,3,3,3,3,3,3,3
</chunk>
   <chunk x="0" y="-16" width="16" height="16">
3,3,3,3,3,3,3,3,3,3,3,3,3,3,3,3,
3,3,3,3,3,3,3,3,3,3,3,3,3,3,3,3,
3,3,3,3,3,3,3,3,3,3,3,3,3,3,3,3,
3,3,3,3,3,3,3,3,3,3,3,3,3,3,3,3,
3,3,3,3,3,3,3,3,3,3,3,3,3,3,3,3,
3,3,3,3,3,3,3,3,3,3,3,3,3,3,3,3,
3,3,3,3,3,3,3,3,3,3,3,3,3,3,3,3,
3,3,3,3,3,3,3,3,3,3,3,3,3,3,3,3,
3,3,3,3,3,3,3,3,3,3,3,3,3,3,3,3,
3,3,3,3,3,3,3,3,3,3,3,3,3,3,3,3,
3,3,3,3,3,3,3,3,3,3,3,3,3,3,3,3,
3,3,3,3,3,3,3,3,3,3,3,3,3,3,3,3,
3,3,3,3,3,3,3,3,3,3,3,3,3,12,12,12,
3,3,3,3,3,3,3,3,3,3,3,3,12,12,12,12,
3,3,3,3,3,3,3,3,3,3,3,3,12,12,12,12,
3,3,3,3,3,3,3,3,3,3,3,12,12,12,12,12
</chunk>
   <chunk x="16" y="-16" width="16" height="16">
3,3,3,3,3,3,3,3,3,3,3,3,3,3,3,3,
3,3,3,3,3,3,3,3,3,3,3,3,3,3,3,3,
3,3,3,3,3,3,3,3,3,3,3,3,3,3,3,3,
3,3,3,3,3,3,3,3,3,3,3,3,3,3,3,3,
3,3,3,3,3,3,3,3,3,3,3,3,3,3,3,3,
3,3,3,3,3,3,3,3,3,3,3,3,3,3,3,3,
3,3,3,3,3,3,3,3,3,3,3,3,3,3,3,3,
3,3,3,3,3,3,3,3,3,3,3,3,3,3,3,3,
3,3,3,3,3,3,3,3,3,3,3,3,3,3,3,3,
3,3,3,3,3,3,3,3,3,3,3,3,3,3,3,3,
3,3,3,3,3,3,3,3,3,3,3,3,3,3,3,3,
3,3,3,3,3,3,3,3,3,3,3,3,3,3,3,3,
12,12,12,12,12,12,12,3,3,3,3,3,3,3,3,3,
12,12,12,12,12,12,12,12,3,3,3,3,3,3,3,3,
12,12,12,12,12,12,12,12,12,3,3,3,3,3,3,3,
12,12,12,12,12,12,12,12,12,12,12,3,3,3,3,3
</chunk>
   <chunk x="32" y="-16" width="16" height="16">
3,3,3,3,3,3,3,3,3,3,3,3,3,3,3,3,
3,3,3,3,3,3,3,3,3,3,3,3,3,3,3,3,
3,3,3,3,3,3,3,3,3,3,3,3,3,3,3,3,
3,3,3,3,3,3,3,3,3,3,3,3,3,3,3,3,
3,3,3,3,3,3,3,3,3,3,3,3,3,3,3,3,
3,3,3,3,3,3,3,3,3,3,3,3,3,3,3,3,
3,3,3,3,3,3,3,3,3,3,3,3,3,3,3,3,
3,3,3,3,3,3,3,3,3,3,3,3,3,3,3,3,
3,3,3,3,3,3,3,3,3,3,3,3,3,3,3,3,
3,3,3,3,3,3,3,3,3,3,3,3,3,3,3,3,
3,3,3,3,3,3,3,3,3,3,3,3,3,3,3,3,
3,3,3,3,3,3,3,3,3,3,3,3,3,3,3,3,
3,3,3,3,3,3,3,3,3,3,3,3,3,3,3,3,
3,3,3,3,3,3,3,3,3,3,3,3,3,3,3,3,
3,3,3,3,3,3,3,3,3,3,3,3,3,3,3,3,
3,3,3,3,3,3,3,3,3,3,3,3,3,3,3,3
</chunk>
   <chunk x="48" y="-16" width="16" height="16">
3,3,3,3,3,3,3,3,3,3,3,3,3,3,3,3,
3,3,3,3,3,3,3,3,3,3,3,3,3,3,3,3,
3,3,3,3,3,3,3,3,3,3,3,3,3,3,3,3,
3,3,3,3,3,3,3,3,3,3,3,3,3,3,3,3,
3,3,3,3,3,3,3,3,3,3,3,3,3,3,3,3,
3,3,3,3,3,3,3,3,3,3,3,3,3,3,3,3,
3,3,3,3,3,3,3,3,3,3,3,3,3,3,3,3,
3,3,3,3,3,3,3,3,3,3,3,3,3,3,3,3,
3,3,3,3,3,3,3,3,3,3,3,3,3,3,3,3,
3,3,3,3,3,3,3,3,3,3,3,3,3,3,3,3,
3,3,3,3,3,3,3,3,3,3,3,3,3,3,3,3,
3,3,3,3,3,3,3,3,3,3,3,3,3,3,3,3,
3,3,3,3,3,3,3,3,3,3,3,3,3,3,3,3,
3,3,3,3,3,3,3,3,3,3,3,3,3,3,3,3,
3,3,3,3,3,3,3,3,3,3,3,3,3,3,3,3,
3,3,3,3,3,3,3,3,3,3,3,3,3,3,3,3
</chunk>
   <chunk x="-32" y="0" width="16" height="16">
3,3,3,3,3,3,3,3,3,3,3,3,3,3,3,3,
3,3,3,3,3,3,3,3,3,3,3,3,3,3,3,3,
3,3,3,3,3,3,3,3,3,3,3,3,3,3,3,3,
3,3,3,3,3,3,3,3,3,3,3,3,3,3,3,3,
3,3,3,3,3,3,3,3,3,3,3,3,3,3,3,3,
3,3,3,3,3,3,3,3,3,3,3,3,3,3,3,3,
3,3,3,3,3,3,3,3,3,3,3,3,3,3,3,3,
3,3,3,3,3,3,3,3,3,3,3,3,3,3,3,3,
3,3,3,3,3,3,3,3,3,3,3,3,3,3,3,3,
3,3,3,3,3,3,3,3,3,3,3,3,3,3,3,3,
3,3,3,3,3,3,3,3,3,3,3,3,3,3,3,3,
3,3,3,3,3,3,3,3,3,3,3,3,3,3,3,1,
3,3,3,3,3,3,3,3,3,3,3,3,3,3,3,1,
3,3,3,3,3,3,3,3,3,3,3,3,3,3,3,1,
3,3,3,3,3,3,3,3,3,3,3,3,3,3,3,1,
3,3,3,3,3,3,3,3,3,3,3,3,3,3,3,1
</chunk>
   <chunk x="-16" y="0" width="16" height="16">
3,3,3,3,3,3,3,3,3,3,3,3,3,3,3,3,
3,3,3,3,3,3,3,3,3,3,3,3,3,3,3,3,
3,3,3,3,3,3,3,3,3,3,3,3,3,3,3,3,
3,3,3,3,3,3,3,3,3,3,3,3,1,1,1,1,
3,3,3,3,3,3,3,3,3,3,3,1,1,1,1,1,
3,3,3,3,3,3,3,1,1,1,1,1,1,1,1,1,
3,3,3,3,1,1,1,1,1,1,1,1,1,1,1,1,
3,3,3,1,1,1,1,1,1,1,1,1,1,1,1,1,
3,1,1,1,1,1,1,1,1,1,1,1,1,1,1,1,
1,1,1,1,1,1,1,1,1,1,1,1,1,1,1,1,
1,1,1,1,1,1,1,1,1,1,1,1,1,1,1,1,
1,1,1,1,1,1,1,1,1,1,1,1,1,1,1,1,
1,1,1,1,1,1,1,1,1,1,1,1,1,1,1,1,
1,1,1,1,1,1,1,1,1,1,1,1,1,1,1,1,
1,1,1,1,1,1,1,1,1,1,1,1,1,1,1,1,
1,1,1,1,1,1,1,1,1,1,1,1,1,1,1,1
</chunk>
   <chunk x="0" y="0" width="16" height="16">
3,3,3,3,3,3,3,3,3,3,0,12,12,12,12,12,
3,3,3,3,3,1,1,1,1,1,0,12,12,12,12,12,
3,3,3,1,1,1,1,1,1,1,0,12,12,12,12,12,
1,1,1,1,1,1,1,1,1,1,0,12,12,12,12,12,
1,1,1,1,1,1,1,1,1,1,0,12,12,12,12,12,
1,1,1,1,1,1,1,1,1,1,0,0,12,12,12,12,
1,1,1,1,1,1,1,1,1,1,1,0,12,12,12,12,
1,1,1,1,1,1,1,1,1,1,1,0,12,12,12,12,
1,1,1,1,1,1,1,1,1,1,1,0,0,12,12,12,
1,1,1,1,1,1,1,1,1,1,1,1,0,12,12,12,
1,1,1,1,1,1,1,1,1,1,1,1,0,0,12,12,
1,1,1,1,1,1,1,1,1,1,1,1,1,0,0,0,
1,1,1,1,1,1,1,1,1,1,1,1,1,1,1,1,
1,1,1,1,1,1,1,1,1,1,1,1,1,1,1,1,
1,1,1,1,1,1,1,1,1,1,1,1,1,1,1,1,
1,1,1,1,1,1,1,1,1,1,1,1,1,1,1,1
</chunk>
   <chunk x="16" y="0" width="16" height="16">
12,12,12,12,12,12,12,12,12,12,12,12,3,3,3,3,
12,12,12,12,12,12,12,12,12,12,12,12,3,3,3,3,
12,12,12,12,12,12,12,12,12,12,12,12,3,3,3,3,
12,12,12,12,12,12,12,12,12,12,12,12,12,3,3,3,
12,12,12,12,12,12,12,12,12,12,12,12,12,12,3,3,
12,12,12,12,12,12,12,12,12,12,12,12,12,12,12,3,
12,12,12,12,12,12,12,12,12,12,12,12,12,12,12,3,
12,12,12,12,12,12,12,12,12,12,12,12,12,12,0,3,
12,12,12,12,12,12,12,12,12,12,12,12,12,12,0,3,
12,12,12,12,12,12,12,12,12,12,12,12,12,0,0,1,
12,12,12,12,12,12,12,12,12,12,12,12,0,0,1,1,
12,12,12,12,12,12,12,12,12,12,0,0,0,1,1,1,
1,1,1,1,1,1,1,1,1,0,0,1,1,1,1,1,
1,1,1,1,1,1,1,1,1,1,1,1,1,1,1,1,
1,1,1,1,1,1,1,1,1,1,1,1,1,1,1,1,
1,1,1,1,1,1,1,1,1,1,1,1,1,1,1,1
</chunk>
   <chunk x="32" y="0" width="16" height="16">
3,3,3,3,3,3,3,3,3,3,3,3,3,3,3,3,
3,3,3,3,3,3,3,3,3,3,3,3,3,3,3,3,
3,3,3,3,3,3,3,3,3,3,3,3,3,3,3,3,
3,3,3,3,3,3,3,3,3,3,3,3,3,3,3,3,
3,3,3,3,3,3,3,3,3,3,3,3,3,3,3,3,
3,3,3,3,3,3,3,3,3,3,3,3,3,3,3,3,
3,3,3,3,3,3,3,3,3,3,3,3,3,3,3,3,
3,3,3,3,3,3,3,3,3,3,3,3,3,3,3,3,
3,3,3,3,3,3,3,3,3,3,3,3,3,3,3,3,
3,3,3,3,3,3,3,3,3,3,3,3,3,3,3,3,
3,3,3,3,3,3,3,3,3,3,3,3,3,3,3,3,
1,3,3,3,3,3,3,3,3,3,3,3,3,3,3,3,
1,3,3,3,3,3,3,3,3,3,3,3,3,3,3,3,
1,3,3,3,3,3,3,3,3,3,3,3,3,3,3,3,
1,3,3,3,3,3,3,3,3,3,3,3,3,3,3,3,
1,3,3,3,3,3,3,3,3,3,3,3,3,3,3,3
</chunk>
   <chunk x="48" y="0" width="16" height="16">
3,3,3,3,3,3,3,3,3,3,3,3,3,3,3,3,
3,3,3,3,3,3,3,3,3,3,3,3,3,3,3,3,
3,3,3,3,3,3,3,3,3,3,3,3,3,3,3,3,
3,3,3,3,3,3,3,3,3,3,3,3,3,3,3,3,
3,3,3,3,3,3,3,3,3,3,3,3,3,3,3,3,
3,3,3,3,3,3,3,3,3,3,3,3,3,3,3,3,
3,3,3,3,3,3,3,3,3,3,3,3,3,3,3,3,
3,3,3,3,3,3,3,3,3,3,3,3,3,3,3,3,
3,3,3,3,3,3,3,3,3,3,3,3,3,3,3,3,
3,3,3,3,3,3,3,3,3,3,3,3,3,3,3,3,
3,3,3,3,3,3,3,3,3,3,3,3,3,3,3,3,
3,3,3,3,3,3,3,3,3,3,3,3,3,3,3,3,
3,3,3,3,3,3,3,3,3,3,3,3,3,3,3,3,
3,3,3,3,3,3,3,3,3,3,3,3,3,3,3,3,
3,3,3,3,3,3,3,3,3,3,3,3,3,3,3,3,
3,3,3,3,3,3,3,3,3,3,3,3,3,3,3,3
</chunk>
   <chunk x="-32" y="16" width="16" height="16">
3,3,3,3,3,3,3,3,3,3,3,3,3,3,3,1,
3,3,3,3,3,3,3,3,3,3,3,3,3,3,3,1,
3,3,3,3,3,3,3,3,3,3,3,3,3,3,3,1,
3,3,3,3,3,3,3,3,3,3,3,3,3,3,1,1,
3,3,3,3,3,3,3,3,3,3,3,3,3,3,1,1,
3,3,3,3,3,3,3,3,3,3,3,3,3,1,1,1,
3,3,3,3,3,3,3,3,3,3,3,3,3,1,1,1,
3,3,3,3,3,3,3,3,3,3,3,3,3,1,1,1,
3,3,3,3,3,3,3,3,3,3,3,3,3,1,1,1,
3,3,3,3,3,3,3,3,3,3,3,3,3,3,1,1,
3,3,3,3,3,3,3,3,3,3,3,3,3,3,1,1,
3,3,3,3,3,3,3,3,3,3,3,3,3,3,1,1,
3,3,3,3,3,3,3,3,3,3,3,3,3,3,1,1,
3,3,3,3,3,3,3,3,3,3,3,3,3,3,3,1,
3,3,3,3,3,3,3,3,3,3,3,3,3,3,3,3,
3,3,3,3,3,3,3,3,3,3,3,3,3,3,3,3
</chunk>
   <chunk x="-16" y="16" width="16" height="16">
1,1,1,1,1,1,1,1,1,1,1,1,1,1,1,1,
1,1,1,1,1,1,1,1,1,1,1,1,1,1,1,1,
1,1,1,1,1,1,1,1,1,1,1,1,1,1,1,1,
1,1,1,1,1,1,1,1,1,1,1,1,1,1,1,1,
1,1,1,1,1,1,1,1,1,1,1,1,1,1,1,1,
13,13,13,13,13,13,13,13,13,13,13,13,1,1,1,1,
13,13,13,13,13,13,13,13,13,13,13,13,1,1,1,1,
13,13,13,13,13,13,13,13,13,13,13,13,1,1,1,1,
13,13,13,13,13,13,13,13,13,13,13,13,1,1,1,1,
13,13,13,13,13,13,13,13,13,13,13,13,1,1,1,1,
13,13,13,13,13,13,13,13,13,13,13,13,1,1,1,1,
13,13,13,13,13,13,13,13,13,13,13,13,1,1,1,1,
1,1,1,1,1,1,1,1,1,1,1,1,1,1,1,1,
1,1,1,1,1,1,1,1,1,1,1,1,1,1,1,1,
1,1,1,1,1,1,1,1,1,1,1,1,1,1,1,1,
1,1,1,1,1,1,1,1,1,1,1,1,1,1,1,1
</chunk>
   <chunk x="0" y="16" width="16" height="16">
1,1,1,1,1,1,1,1,1,1,1,1,1,1,1,1,
1,1,1,1,1,1,1,1,1,1,1,1,1,1,1,1,
1,1,1,1,1,1,1,1,1,1,1,1,1,1,1,1,
1,1,1,1,1,1,1,1,1,1,1,1,1,1,1,1,
1,1,1,1,1,1,1,1,1,1,1,1,1,1,1,1,
1,1,1,1,1,1,1,1,1,1,1,1,1,1,1,1,
1,1,1,1,1,1,1,1,1,1,1,1,1,1,1,1,
1,1,1,1,1,1,1,1,1,1,1,1,1,1,1,1,
1,1,1,1,1,1,1,1,1,1,1,1,1,1,1,1,
1,1,1,1,1,1,1,1,1,1,1,1,1,1,1,1,
1,1,1,1,1,1,1,1,1,1,1,1,1,1,1,1,
1,1,1,1,1,1,1,1,1,1,1,1,1,1,1,1,
1,1,1,1,1,1,1,1,1,1,1,1,1,1,1,1,
1,1,1,1,1,1,1,1,1,1,1,1,1,1,1,1,
1,1,1,1,1,1,1,1,1,1,1,1,1,1,1,1,
1,1,1,1,1,1,1,1,1,1,1,1,1,1,1,1
</chunk>
   <chunk x="16" y="16" width="16" height="16">
1,1,1,1,1,1,1,1,1,1,1,1,1,1,1,1,
1,1,1,1,1,1,1,1,1,1,1,1,1,1,1,1,
1,1,1,1,1,1,1,1,1,1,1,1,1,1,1,1,
1,1,1,1,1,1,1,1,1,1,1,1,1,1,1,1,
1,1,1,1,1,1,1,1,1,1,1,1,1,1,1,1,
1,1,1,1,1,1,1,1,1,1,1,1,1,1,1,1,
1,1,1,1,1,1,1,1,1,1,1,1,1,1,1,1,
1,1,1,1,1,1,1,1,1,1,1,1,1,1,1,1,
1,1,1,1,1,1,1,1,1,1,1,1,1,1,1,1,
1,1,1,1,1,1,1,1,1,1,1,1,1,1,1,1,
1,1,1,1,1,1,1,1,1,1,1,1,1,1,1,1,
1,1,1,1,1,1,1,1,1,1,1,1,1,1,1,1,
1,1,1,1,1,1,1,1,1,1,1,1,1,1,1,1,
1,1,1,1,1,1,1,1,1,1,1,1,1,1,1,4,
1,1,1,1,1,1,1,1,1,1,1,1,1,1,1,4,
1,1,1,1,1,1,1,1,1,1,1,1,1,1,4,4
</chunk>
   <chunk x="32" y="16" width="16" height="16">
1,3,3,3,3,3,3,3,3,3,3,3,3,3,3,3,
1,3,3,3,3,3,3,3,3,3,3,3,3,3,3,3,
1,3,3,3,3,3,3,3,3,3,3,3,3,3,3,3,
1,3,3,3,3,3,3,3,3,3,3,3,3,3,3,3,
1,3,3,3,3,3,3,3,3,3,3,3,3,3,3,3,
1,3,3,3,3,3,3,3,3,3,3,3,3,3,3,3,
1,3,3,3,3,3,3,3,3,3,3,3,3,3,3,3,
3,3,3,3,3,3,3,3,3,3,3,3,3,3,3,3,
3,3,3,3,3,3,3,3,3,3,3,3,3,3,3,3,
3,3,3,3,3,3,3,3,3,3,3,3,3,3,3,3,
3,3,3,3,3,3,3,3,3,3,3,3,3,3,3,3,
3,3,3,3,3,3,3,3,3,3,3,3,3,3,3,3,
4,3,3,3,3,3,3,3,3,3,3,3,3,3,3,3,
4,3,3,3,3,3,3,3,3,3,3,3,3,3,3,3,
3,3,3,3,3,3,3,3,3,3,3,3,3,3,3,3,
3,3,3,3,3,3,3,3,3,3,3,3,3,3,3,3
</chunk>
   <chunk x="48" y="16" width="16" height="16">
3,3,3,3,3,3,3,3,3,3,3,3,3,3,3,3,
3,3,3,3,3,3,3,3,3,3,3,3,3,3,3,3,
3,3,3,3,3,3,3,3,3,3,3,3,3,3,3,3,
3,3,3,3,3,3,3,3,3,3,3,3,3,3,3,3,
3,3,3,3,3,3,3,3,3,3,3,3,3,3,3,3,
3,3,3,3,3,3,3,3,3,3,3,3,3,3,3,3,
3,3,3,3,3,3,3,3,3,3,3,3,3,3,3,3,
3,3,3,3,3,3,3,3,3,3,3,3,3,3,3,3,
3,3,3,3,3,3,3,3,3,3,3,3,3,3,3,3,
3,3,3,3,3,3,3,3,3,3,3,3,3,3,3,3,
3,3,3,3,3,3,3,3,3,3,3,3,3,3,3,3,
3,3,3,3,3,3,3,3,3,3,3,3,3,3,3,3,
3,3,3,3,3,3,3,3,3,3,3,3,3,3,3,3,
3,3,3,3,3,3,3,3,3,3,3,3,3,3,3,3,
3,3,3,3,3,3,3,3,3,3,3,3,3,3,3,3,
3,3,3,3,3,3,3,3,3,3,3,3,3,3,3,3
</chunk>
   <chunk x="-32" y="32" width="16" height="16">
3,3,3,3,3,3,3,3,3,3,3,3,3,3,3,3,
3,3,3,3,3,3,3,3,3,3,3,3,3,3,3,3,
3,3,3,3,3,3,3,3,3,3,3,3,3,3,3,3,
3,3,3,3,3,3,3,3,3,3,3,3,3,3,3,3,
3,3,3,3,3,3,3,3,3,3,3,3,3,3,3,3,
3,3,3,3,3,3,3,3,3,3,3,3,3,3,3,3,
3,3,3,3,3,3,3,3,3,3,3,3,3,3,3,3,
3,3,3,3,3,3,3,3,3,3,3,3,3,3,3,3,
3,3,3,3,3,3,3,3,3,3,3,3,3,3,3,3,
3,3,3,3,3,3,3,3,3,3,3,3,3,3,3,3,
3,3,3,3,3,3,3,3,3,3,3,3,3,3,3,3,
3,3,3,3,3,3,3,3,3,3,3,3,3,3,3,3,
3,3,3,3,3,3,3,3,3,3,3,3,3,3,3,3,
3,3,3,3,3,3,3,3,3,3,3,3,3,3,3,3,
3,3,3,3,3,3,3,3,3,3,3,3,3,3,3,3,
3,3,3,3,3,3,3,3,3,3,3,3,3,3,3,3
</chunk>
   <chunk x="-16" y="32" width="16" height="16">
3,1,1,1,1,1,1,1,1,1,1,1,1,1,1,1,
3,3,3,1,1,1,1,1,1,1,1,1,1,1,1,1,
3,3,3,3,1,1,1,1,1,1,1,1,1,1,1,1,
3,3,3,3,1,1,1,1,3,1,1,1,1,1,1,1,
3,3,3,3,3,3,3,3,3,3,3,1,1,1,1,1,
3,3,3,3,3,3,3,3,3,3,3,3,3,3,3,3,
3,3,3,3,3,3,3,3,3,3,3,3,3,3,3,3,
3,3,3,3,3,3,3,3,3,3,3,3,3,3,3,3,
3,3,3,3,3,3,3,3,3,3,3,3,3,3,3,3,
3,3,3,3,3,3,3,3,3,3,3,3,3,3,3,3,
3,3,3,3,3,3,3,3,3,3,3,3,3,3,3,3,
3,3,3,3,3,3,3,3,3,3,3,3,3,3,3,3,
3,3,3,3,3,3,3,3,3,3,3,3,3,3,3,3,
3,3,3,3,3,3,3,3,3,3,3,3,3,3,3,3,
3,3,3,3,3,3,3,3,3,3,3,3,3,3,3,3,
3,3,3,3,3,3,3,3,3,3,3,3,3,3,3,3
</chunk>
   <chunk x="0" y="32" width="16" height="16">
1,1,1,1,1,1,1,1,1,1,1,1,1,1,1,1,
1,1,1,1,1,1,1,1,1,1,1,1,1,1,1,1,
1,1,1,1,1,1,1,1,1,1,1,1,1,1,1,1,
1,1,1,1,1,1,1,1,1,1,1,1,1,1,1,3,
1,11,11,3,3,3,3,11,11,1,1,1,1,1,3,3,
3,11,11,3,3,3,3,11,11,3,3,3,3,3,3,3,
3,11,11,3,3,3,3,11,11,3,3,3,3,3,3,3,
3,11,11,3,3,3,3,11,11,3,3,3,3,3,3,3,
3,11,11,3,3,3,3,11,11,3,3,3,3,3,3,3,
3,11,11,3,3,3,3,11,11,3,3,3,3,3,3,3,
3,3,3,3,3,3,3,3,3,3,3,3,3,3,3,3,
3,3,3,3,3,3,3,3,3,3,3,3,3,3,3,3,
3,3,3,3,3,3,3,3,3,3,3,3,3,3,3,3,
3,3,3,3,3,3,3,3,3,3,3,3,3,3,3,3,
3,3,3,3,3,3,3,3,3,3,3,3,3,3,3,3,
3,3,3,3,3,3,3,3,3,3,3,3,3,3,3,3
</chunk>
   <chunk x="16" y="32" width="16" height="16">
1,1,1,1,1,1,1,1,1,1,1,1,3,4,4,4,
1,1,1,1,1,1,1,1,3,3,3,3,3,3,3,3,
1,1,3,3,3,3,3,3,3,3,3,3,3,3,3,3,
3,3,3,3,3,3,3,3,3,3,3,3,3,3,3,3,
3,3,3,3,3,3,3,3,3,3,3,3,3,3,3,3,
3,3,3,3,3,3,3,3,3,3,3,3,3,3,3,11,
3,3,3,3,3,3,3,3,3,3,3,3,3,3,3,11,
3,3,3,3,3,3,3,3,3,3,3,3,3,3,3,3,
3,3,3,3,3,3,3,3,3,3,3,3,3,3,3,3,
3,3,3,3,3,3,3,3,3,3,3,3,3,3,3,3,
3,3,3,3,3,3,3,3,3,3,3,3,3,3,3,3,
3,3,3,3,3,3,3,3,3,3,3,3,3,3,3,3,
3,3,3,3,3,3,3,3,3,3,3,3,3,3,3,3,
3,3,3,3,3,3,3,3,3,3,3,3,3,3,3,3,
3,3,3,3,3,3,3,3,3,3,3,3,3,3,3,3,
3,3,3,3,3,3,3,3,3,3,3,3,3,3,3,3
</chunk>
   <chunk x="32" y="32" width="16" height="16">
3,3,3,3,3,3,3,3,3,3,3,3,3,3,3,3,
3,3,3,3,3,3,3,3,3,3,3,3,3,3,3,3,
3,3,3,3,3,3,3,3,3,3,3,3,3,3,3,3,
3,3,3,3,3,3,3,3,3,3,3,3,3,3,3,3,
3,3,3,3,3,3,3,3,3,3,3,3,3,3,3,3,
11,11,11,11,11,11,11,3,3,3,3,3,3,3,3,3,
11,11,11,11,11,11,11,3,3,3,3,3,3,3,3,3,
3,3,3,3,3,3,3,3,3,3,3,3,3,3,3,3,
3,3,3,3,3,3,3,3,3,3,3,3,3,3,3,3,
3,3,3,3,3,3,3,3,3,3,3,3,3,3,3,3,
3,3,3,3,3,3,3,3,3,3,3,3,3,3,3,3,
3,3,3,3,3,3,3,3,3,3,3,3,3,3,3,3,
3,3,3,3,3,3,3,3,3,3,3,3,3,3,3,3,
3,3,3,3,3,3,3,3,3,3,3,3,3,3,3,3,
3,3,3,3,3,3,3,3,3,3,3,3,3,3,3,3,
3,3,3,3,3,3,3,3,3,3,3,3,3,3,3,3
</chunk>
   <chunk x="48" y="32" width="16" height="16">
3,3,3,3,3,3,3,3,3,3,3,3,3,3,3,3,
3,3,3,3,3,3,3,3,3,3,3,3,3,3,3,3,
3,3,3,3,3,3,3,3,3,3,3,3,3,3,3,3,
3,3,3,3,3,3,3,3,3,3,3,3,3,3,3,3,
3,3,3,3,3,3,3,3,3,3,3,3,3,3,3,3,
3,3,3,3,3,3,3,3,3,3,3,3,3,3,3,3,
3,3,3,3,3,3,3,3,3,3,3,3,3,3,3,3,
3,3,3,3,3,3,3,3,3,3,3,3,3,3,3,3,
3,3,3,3,3,3,3,3,3,3,3,3,3,3,3,3,
3,3,3,3,3,3,3,3,3,3,3,3,3,3,3,3,
3,3,3,3,3,3,3,3,3,3,3,3,3,3,3,3,
3,3,3,3,3,3,3,3,3,3,3,3,3,3,3,3,
3,3,3,3,3,3,3,3,3,3,3,3,3,3,3,3,
3,3,3,3,3,3,3,3,3,3,3,3,3,3,3,3,
3,3,3,3,3,3,3,3,3,3,3,3,3,3,3,3,
3,3,3,3,3,3,3,3,3,3,3,3,3,3,3,3
</chunk>
  </data>
 </layer>
 <layer id="4" name="groundLayer2" width="30" height="20" opacity="0.41">
  <data encoding="csv">
   <chunk x="0" y="-16" width="16" height="16">
0,0,0,0,0,0,0,0,0,0,0,0,0,0,0,0,
0,0,0,0,0,0,0,0,0,0,0,0,0,0,0,0,
0,0,0,0,0,0,0,0,0,0,0,0,0,0,0,0,
0,0,0,0,0,0,0,0,0,0,0,0,0,0,0,0,
0,0,0,0,0,0,0,0,0,0,0,0,0,0,0,0,
0,0,0,0,0,0,0,0,0,0,0,0,0,0,0,0,
0,0,0,0,0,0,0,0,0,0,0,0,0,0,0,0,
0,0,0,0,0,0,0,0,0,0,0,0,0,0,0,0,
0,0,0,0,0,0,0,0,0,0,0,0,0,0,0,0,
0,0,0,0,0,0,0,0,0,0,0,0,0,0,0,0,
0,0,0,0,0,0,0,0,0,0,0,0,0,0,0,0,
0,0,0,0,0,0,0,0,0,0,0,0,0,0,0,0,
0,0,0,0,0,0,0,0,0,0,0,5,5,0,4,4,
0,0,0,0,0,0,0,0,0,0,0,5,4,4,4,4,
0,0,0,0,0,0,0,0,0,0,5,5,4,4,0,0,
0,0,0,0,0,0,0,0,0,4,5,4,4,0,0,0
</chunk>
   <chunk x="16" y="-16" width="16" height="16">
0,0,0,0,0,0,0,0,0,0,0,0,0,0,0,0,
0,0,0,0,0,0,0,0,0,0,0,0,0,0,0,0,
0,0,0,0,0,0,0,0,0,0,0,0,0,0,0,0,
0,0,0,0,0,0,0,0,0,0,0,0,0,0,0,0,
0,0,0,0,0,0,0,0,0,0,0,0,0,0,0,0,
0,0,0,0,0,0,0,0,0,0,0,0,0,0,0,0,
0,0,0,0,0,0,0,0,0,0,0,0,0,0,0,0,
0,0,0,0,0,0,0,0,0,0,0,0,0,0,0,0,
0,0,0,0,0,0,0,0,0,0,0,0,0,0,0,0,
0,0,0,0,0,0,0,0,0,0,0,0,0,0,0,0,
0,0,0,0,0,0,0,0,0,0,0,0,0,0,0,0,
0,0,0,0,0,0,0,0,0,0,0,0,0,0,0,0,
4,4,4,4,4,4,4,0,0,0,0,0,0,0,0,0,
4,4,4,4,4,4,4,4,0,0,0,0,0,0,0,0,
0,0,0,0,0,4,4,4,4,0,0,0,0,0,0,0,
0,0,0,0,0,0,0,4,4,4,4,0,0,0,0,0
</chunk>
   <chunk x="-16" y="0" width="16" height="16">
0,0,0,0,0,0,0,0,0,0,0,0,0,0,0,0,
0,0,0,0,0,0,0,0,0,0,0,0,0,0,0,0,
0,0,0,0,0,0,0,0,0,0,0,0,0,0,4,4,
0,0,0,0,0,0,0,0,0,0,0,0,0,0,0,0,
0,0,0,0,0,0,0,0,0,0,0,0,0,0,0,0,
0,0,0,0,0,0,0,0,0,0,0,0,0,0,0,0,
0,0,0,0,0,0,0,0,0,0,0,0,0,0,0,0,
0,0,0,0,0,0,0,0,0,0,0,0,0,0,0,0,
0,0,0,0,0,0,0,0,0,0,0,0,0,0,0,0,
0,0,0,0,0,0,0,0,0,0,0,0,0,0,0,0,
0,0,0,0,0,0,0,0,0,0,0,0,0,0,0,0,
0,0,0,0,0,0,0,0,0,0,0,0,0,0,0,0,
0,0,0,0,0,0,0,0,0,0,0,0,0,0,4,0,
0,0,0,0,0,0,0,0,0,0,0,0,0,0,4,0,
0,0,0,0,0,0,0,0,0,0,0,0,0,0,4,0,
0,0,0,0,0,0,0,0,0,0,0,0,0,0,4,0
</chunk>
   <chunk x="0" y="0" width="16" height="16">
0,0,0,0,0,4,4,4,4,4,5,4,0,0,0,0,
0,0,4,4,4,4,4,4,4,4,5,0,0,0,0,0,
4,4,4,4,0,0,0,0,0,0,5,0,0,0,0,0,
0,0,0,0,0,0,0,0,0,0,5,0,0,0,0,0,
0,0,0,0,0,0,0,0,0,0,5,0,0,0,0,0,
0,0,0,0,0,0,0,0,0,0,5,5,0,0,0,0,
0,0,0,0,0,0,0,0,0,0,0,5,0,0,0,0,
0,0,0,0,0,0,0,0,0,0,0,5,0,0,0,0,
0,0,0,0,0,0,0,0,0,0,0,5,5,0,0,0,
0,0,0,0,0,0,0,0,0,0,0,0,5,0,0,0,
0,0,0,0,0,0,0,0,0,0,0,0,5,5,0,0,
0,0,0,0,0,0,0,0,0,0,0,0,0,5,5,5,
0,0,0,0,0,0,0,0,0,0,0,0,0,0,0,0,
0,0,0,0,0,0,0,0,0,0,0,0,0,0,0,0,
0,0,0,0,0,0,0,0,0,0,0,0,0,0,0,0,
0,0,0,0,0,0,0,0,0,0,0,0,0,0,0,0
</chunk>
   <chunk x="16" y="0" width="16" height="16">
0,0,0,0,0,0,0,0,4,4,4,4,0,0,0,0,
0,0,0,0,0,0,0,0,0,4,4,4,0,0,0,0,
0,0,0,0,0,0,0,0,0,0,4,4,0,0,0,0,
0,0,0,0,0,0,0,0,0,0,4,4,4,0,0,0,
0,0,0,0,0,0,0,0,0,0,0,4,4,4,0,0,
0,0,0,0,0,0,0,0,0,0,0,0,4,4,4,0,
0,0,0,0,0,0,0,0,0,0,0,0,4,4,4,5,
0,0,0,0,0,0,4,0,0,0,0,0,0,4,5,5,
0,0,0,0,0,0,4,0,0,0,0,0,0,0,5,5,
0,0,0,0,0,0,4,0,0,0,0,0,0,5,5,4,
0,0,0,0,0,0,4,0,0,0,0,0,5,5,0,4,
5,5,5,5,5,0,4,0,0,0,5,5,5,0,0,4,
0,0,0,0,5,4,4,4,5,5,5,0,0,0,0,0,
0,0,0,0,0,4,4,4,0,0,0,0,0,0,0,0,
0,0,0,0,0,4,4,4,0,0,0,0,0,0,0,0,
0,0,0,0,0,4,4,4,0,0,0,0,0,0,0,0
</chunk>
   <chunk x="32" y="0" width="16" height="16">
0,0,0,0,0,0,0,0,0,0,0,0,0,0,0,0,
0,0,0,0,0,0,0,0,0,0,0,0,0,0,0,0,
0,0,0,0,0,0,0,0,0,0,0,0,0,0,0,0,
0,0,0,0,0,0,0,0,0,0,0,0,0,0,0,0,
0,0,0,0,0,0,0,0,0,0,0,0,0,0,0,0,
0,0,0,0,0,0,0,0,0,0,0,0,0,0,0,0,
5,0,0,0,0,0,0,0,0,0,0,0,0,0,0,0,
5,0,0,0,0,0,0,0,0,0,0,0,0,0,0,0,
5,0,0,0,0,0,0,0,0,0,0,0,0,0,0,0,
4,0,0,0,0,0,0,0,0,0,0,0,0,0,0,0,
4,0,0,0,0,0,0,0,0,0,0,0,0,0,0,0,
4,4,0,0,0,0,0,0,0,0,0,0,0,0,0,0,
4,4,0,0,0,0,0,0,0,0,0,0,0,0,0,0,
4,4,0,0,0,0,0,0,0,0,0,0,0,0,0,0,
4,4,0,0,0,0,0,0,0,0,0,0,0,0,0,0,
4,4,0,0,0,0,0,0,0,0,0,0,0,0,0,0
</chunk>
   <chunk x="-32" y="16" width="16" height="16">
0,0,0,0,0,0,0,0,0,0,0,0,0,0,0,0,
0,0,0,0,0,0,0,0,0,0,0,0,0,0,0,0,
0,0,0,0,0,0,0,0,0,0,0,0,0,0,0,0,
0,0,0,0,0,0,0,0,0,0,0,0,0,0,0,4,
0,0,0,0,0,0,0,0,0,0,0,0,0,0,0,4,
0,0,0,0,0,0,0,0,0,0,0,0,0,0,4,4,
0,0,0,0,0,0,0,0,0,0,0,0,0,0,4,4,
0,0,0,0,0,0,0,0,0,0,0,0,0,0,4,4,
0,0,0,0,0,0,0,0,0,0,0,0,0,0,4,4,
0,0,0,0,0,0,0,0,0,0,0,0,0,0,4,4,
0,0,0,0,0,0,0,0,0,0,0,0,0,0,4,4,
0,0,0,0,0,0,0,0,0,0,0,0,0,0,4,4,
0,0,0,0,0,0,0,0,0,0,0,0,0,0,0,4,
0,0,0,0,0,0,0,0,0,0,0,0,0,0,0,4,
0,0,0,0,0,0,0,0,0,0,0,0,0,0,0,0,
0,0,0,0,0,0,0,0,0,0,0,0,0,0,0,0
</chunk>
   <chunk x="-16" y="16" width="16" height="16">
0,0,0,0,0,0,0,0,0,0,0,0,0,0,4,0,
0,0,0,0,0,0,0,0,0,0,0,0,0,0,4,0,
0,0,0,0,0,0,0,0,0,0,0,0,0,4,4,0,
4,4,4,4,4,4,4,4,4,4,4,4,4,4,4,0,
4,4,4,4,4,4,4,4,4,4,4,4,4,4,4,0,
0,0,0,0,0,0,0,0,0,0,0,0,4,4,4,0,
0,0,0,0,0,0,0,0,0,0,0,0,4,4,4,0,
0,0,0,0,0,0,0,0,0,0,0,0,0,4,4,0,
0,0,0,0,0,0,0,0,0,0,0,0,0,0,4,0,
0,0,0,0,0,0,0,0,0,0,0,0,0,0,4,0,
0,0,0,0,0,0,0,0,0,0,0,0,0,0,4,0,
0,0,0,0,0,0,0,0,0,0,0,0,0,0,4,0,
4,0,0,0,0,0,0,0,0,0,0,0,0,0,4,0,
4,0,0,0,0,0,0,0,0,0,0,0,0,0,4,0,
4,0,0,0,0,0,0,0,0,0,0,0,0,0,4,0,
0,0,0,0,0,0,0,0,0,0,0,0,0,0,4,0
</chunk>
   <chunk x="16" y="16" width="16" height="16">
0,0,0,0,0,4,4,4,0,0,0,0,0,0,0,0,
0,0,0,0,0,4,4,4,0,0,0,0,0,0,0,0,
0,0,0,0,0,4,4,4,0,0,0,0,0,0,0,0,
0,0,0,0,0,4,4,4,0,0,0,0,0,0,0,0,
0,0,0,0,0,4,4,4,0,0,0,0,0,0,0,0,
0,0,0,0,0,4,4,4,0,0,0,0,0,0,0,0,
0,0,0,0,0,4,4,4,0,0,0,0,0,0,0,0,
0,0,0,0,4,4,4,4,0,0,0,0,0,0,0,4,
0,0,0,0,4,4,4,4,0,0,0,0,0,0,0,4,
0,0,0,0,4,4,4,0,0,0,0,0,0,0,0,4,
0,0,0,0,0,0,0,0,0,0,0,0,0,0,0,4,
0,0,0,0,0,0,0,0,0,0,0,0,0,0,0,4,
0,0,0,0,0,0,0,0,0,0,0,0,0,0,0,4,
0,0,0,0,0,0,0,0,0,0,0,0,0,0,4,4,
0,0,0,0,0,0,0,0,0,0,0,0,0,4,4,0,
0,0,0,0,4,4,0,0,0,0,0,0,4,4,4,0
</chunk>
   <chunk x="32" y="16" width="16" height="16">
4,4,0,0,0,0,0,0,0,0,0,0,0,0,0,0,
4,4,0,0,0,0,0,0,0,0,0,0,0,0,0,0,
4,4,0,0,0,0,0,0,0,0,0,0,0,0,0,0,
4,4,0,0,0,0,0,0,0,0,0,0,0,0,0,0,
4,4,0,0,0,0,0,0,0,0,0,0,0,0,0,0,
4,4,0,0,0,0,0,0,0,0,0,0,0,0,0,0,
4,4,0,0,0,0,0,0,0,0,0,0,0,0,0,0,
4,4,0,0,0,0,0,0,0,0,0,0,0,0,0,0,
4,0,0,0,0,0,0,0,0,0,0,0,0,0,0,0,
4,0,0,0,0,0,0,0,0,0,0,0,0,0,0,0,
4,0,0,0,0,0,0,0,0,0,0,0,0,0,0,0,
4,0,0,0,0,0,0,0,0,0,0,0,0,0,0,0,
4,0,0,0,0,0,0,0,0,0,0,0,0,0,0,0,
0,0,0,0,0,0,0,0,0,0,0,0,0,0,0,0,
0,0,0,0,0,0,0,0,0,0,0,0,0,0,0,0,
0,0,0,0,0,0,0,0,0,0,0,0,0,0,0,0
</chunk>
   <chunk x="-16" y="32" width="16" height="16">
0,0,0,0,0,0,0,0,0,0,0,0,0,0,4,4,
0,0,0,0,0,0,4,4,4,4,4,4,4,4,4,4,
0,0,0,4,0,0,0,0,0,0,0,0,0,0,0,0,
0,0,0,0,0,0,0,0,4,4,4,0,0,0,0,0,
0,0,0,0,0,0,0,4,4,4,4,4,4,4,4,4,
0,0,0,0,0,0,0,0,0,0,4,4,4,4,4,4,
0,0,0,0,0,0,0,0,0,0,0,0,0,0,0,0,
0,0,0,0,0,0,0,0,0,0,0,0,0,0,0,0,
0,0,0,0,0,0,0,0,0,0,0,0,0,0,0,0,
0,0,0,0,0,0,0,0,0,0,0,0,0,0,0,0,
0,0,0,0,0,0,0,0,0,0,0,0,0,0,0,0,
0,0,0,0,0,0,0,0,0,0,0,0,0,0,0,0,
0,0,0,0,0,0,0,0,0,0,0,0,0,0,0,0,
0,0,0,0,0,0,0,0,0,0,0,0,0,0,0,0,
0,0,0,0,0,0,0,0,0,0,0,0,0,0,0,0,
0,0,0,0,0,0,0,0,0,0,0,0,0,0,0,0
</chunk>
   <chunk x="0" y="32" width="16" height="16">
4,4,4,4,4,4,4,4,4,4,4,4,4,4,4,4,
4,4,4,4,4,4,4,4,4,0,0,0,0,0,0,0,
0,4,4,4,4,4,4,4,4,0,0,0,0,0,0,0,
0,4,4,4,4,4,4,4,4,0,0,0,0,0,0,0,
4,0,0,4,4,4,4,0,0,0,0,0,0,0,0,0,
0,0,0,0,4,4,4,0,0,0,0,0,0,0,0,0,
0,0,0,0,0,0,0,0,0,0,0,0,0,0,0,0,
0,0,0,0,0,0,0,0,0,0,0,0,0,0,0,0,
0,0,0,0,0,0,0,0,0,0,0,0,0,0,0,0,
0,0,0,0,0,0,0,0,0,0,0,0,0,0,0,0,
0,0,0,0,0,0,0,0,0,0,0,0,0,0,0,0,
0,0,0,0,0,0,0,0,0,0,0,0,0,0,0,0,
0,0,0,0,0,0,0,0,0,0,0,0,0,0,0,0,
0,0,0,0,0,0,0,0,0,0,0,0,0,0,0,0,
0,0,0,0,0,0,0,0,0,0,0,0,0,0,0,0,
0,0,0,0,0,0,0,0,0,0,0,0,0,0,0,0
</chunk>
   <chunk x="16" y="32" width="16" height="16">
4,4,4,4,4,4,4,4,4,4,4,4,4,4,0,0,
0,4,4,4,4,4,4,4,4,4,4,4,4,4,0,0,
0,0,4,4,4,4,4,4,4,4,4,4,4,4,0,0,
0,0,4,4,4,4,4,4,4,4,4,4,4,4,4,0,
0,0,0,4,4,4,4,4,4,4,4,4,4,4,4,0,
0,0,0,0,4,4,4,4,4,4,4,4,4,4,4,0,
0,0,0,0,0,4,4,4,4,4,4,4,4,4,4,0,
0,0,0,0,0,4,4,4,4,4,4,4,4,4,4,0,
0,0,0,0,0,4,4,4,4,4,4,4,4,4,0,0,
0,0,0,0,0,0,4,4,4,4,4,4,4,4,0,0,
0,0,0,0,0,0,0,0,0,0,0,0,0,0,0,0,
0,0,0,0,0,0,0,0,0,0,0,0,0,0,0,0,
0,0,0,0,0,0,0,0,0,0,0,0,0,0,0,0,
0,0,0,0,0,0,0,0,0,0,0,0,0,0,0,0,
0,0,0,0,0,0,0,0,0,0,0,0,0,0,0,0,
0,0,0,0,0,0,0,0,0,0,0,0,0,0,0,0
</chunk>
  </data>
 </layer>
 <layer id="5" name="spawnerLayer" width="30" height="20" visible="0" opacity="0.79">
  <data encoding="csv"/>
 </layer>
 <layer id="2" name="resourcesLayer" width="30" height="20">
  <data encoding="csv">
   <chunk x="16" y="0" width="16" height="16">
0,0,0,0,0,0,0,0,0,0,0,0,0,0,0,0,
0,0,0,0,0,0,0,0,0,0,0,0,0,0,0,0,
0,0,0,0,0,0,0,0,0,0,0,0,0,0,0,0,
0,0,0,0,0,0,0,0,0,0,0,0,0,0,0,0,
0,0,0,0,0,0,0,0,0,0,0,0,0,0,0,0,
0,0,0,0,0,0,0,0,0,0,0,0,0,0,0,0,
0,0,0,0,0,0,0,0,0,0,0,0,0,0,0,0,
0,0,0,0,0,0,0,0,0,0,0,0,0,0,0,0,
0,0,0,0,0,0,0,0,0,0,0,0,0,0,0,0,
0,0,0,0,0,0,0,0,0,0,0,0,0,0,0,0,
0,0,0,0,0,0,0,0,0,0,0,0,0,0,0,0,
0,0,0,0,0,0,0,0,0,0,0,0,0,0,0,0,
0,0,0,0,0,0,0,0,15,0,0,0,0,0,0,0,
0,0,0,0,0,0,0,0,0,15,0,0,0,0,0,0,
0,0,0,0,0,0,0,0,0,0,0,0,0,0,0,0,
0,0,0,0,0,0,0,0,0,0,0,0,0,0,0,0
</chunk>
   <chunk x="16" y="16" width="16" height="16">
0,0,0,0,0,0,0,0,0,0,0,0,0,0,0,0,
0,0,0,0,0,0,0,0,0,0,0,0,0,0,0,0,
0,0,0,0,0,0,0,0,0,0,0,15,15,0,0,0,
0,0,0,0,0,0,0,0,0,0,0,0,0,0,0,0,
0,0,0,0,0,0,0,0,0,0,0,0,0,0,0,0,
0,0,0,0,0,0,0,0,0,0,0,0,0,0,0,0,
0,0,0,0,0,0,0,0,0,0,0,0,0,0,0,0,
0,0,0,0,0,0,0,0,0,0,0,0,0,0,0,0,
0,0,0,0,0,0,0,0,0,0,0,0,0,0,0,0,
0,0,0,0,0,0,0,0,0,0,0,0,0,0,0,0,
0,0,0,0,0,0,0,0,0,0,0,0,0,0,0,0,
0,0,0,0,0,0,0,0,0,0,0,0,0,0,0,0,
0,0,0,0,0,0,0,0,0,0,0,0,0,0,0,0,
0,0,0,0,0,0,0,0,0,0,0,0,0,0,0,0,
0,0,0,0,0,0,0,0,0,0,0,0,0,0,0,0,
0,0,0,0,0,0,0,0,0,0,0,0,0,0,0,0
</chunk>
   <chunk x="-16" y="32" width="16" height="16">
0,0,0,0,0,0,0,0,0,0,0,0,0,0,0,0,
0,0,0,0,0,0,0,0,0,0,0,0,0,0,0,22,
0,0,0,0,0,22,0,0,0,0,0,0,0,0,0,0,
0,0,0,0,0,0,0,0,0,0,0,0,0,0,0,0,
0,0,0,0,0,0,0,0,0,0,0,0,0,0,0,0,
0,0,0,0,0,0,0,0,0,0,0,0,0,0,0,0,
0,0,0,0,0,0,0,0,0,0,0,0,0,0,0,0,
0,0,0,0,0,0,0,0,0,0,0,0,0,0,0,0,
0,0,0,0,0,0,0,0,0,0,0,0,0,0,0,0,
0,0,0,0,0,0,0,0,0,0,0,0,0,0,0,0,
0,0,0,0,0,0,0,0,0,0,0,0,0,0,0,0,
0,0,0,0,0,0,0,0,0,0,0,0,0,0,0,0,
0,0,0,0,0,0,0,0,0,0,0,0,0,0,0,0,
0,0,0,0,0,0,0,0,0,0,0,0,0,0,0,0,
0,0,0,0,0,0,0,0,0,0,0,0,0,0,0,0,
0,0,0,0,0,0,0,0,0,0,0,0,0,0,0,0
</chunk>
   <chunk x="0" y="32" width="16" height="16">
0,0,0,0,0,0,0,0,0,0,0,0,0,0,0,0,
0,0,0,0,0,0,0,0,0,0,14,0,0,0,0,0,
0,0,0,0,0,0,0,0,0,0,0,0,0,0,0,0,
0,0,0,0,0,0,0,0,0,0,0,0,0,0,0,0,
0,0,0,0,0,0,0,0,0,0,0,0,0,0,0,0,
0,0,0,0,0,0,0,0,0,0,0,0,0,0,0,0,
0,0,0,0,0,0,0,0,0,0,0,0,0,0,0,0,
0,0,0,0,0,0,0,0,0,0,0,0,0,0,0,0,
0,0,0,0,0,0,0,0,0,0,0,0,0,0,0,0,
0,0,0,0,0,0,0,0,0,0,0,0,0,0,0,0,
0,0,0,0,0,0,0,0,0,0,0,0,0,0,0,0,
0,0,0,0,0,0,0,0,0,0,0,0,0,0,0,0,
0,0,0,0,0,0,0,0,0,0,0,0,0,0,0,0,
0,0,0,0,0,0,0,0,0,0,0,0,0,0,0,0,
0,0,0,0,0,0,0,0,0,0,0,0,0,0,0,0,
0,0,0,0,0,0,0,0,0,0,0,0,0,0,0,0
</chunk>
   <chunk x="16" y="32" width="16" height="16">
0,0,0,0,0,0,0,0,0,0,0,0,0,0,0,0,
22,0,0,0,0,0,0,0,0,0,0,0,0,0,0,0,
0,0,0,0,0,0,0,0,0,0,0,0,0,0,0,0,
0,0,0,0,0,0,0,0,0,0,0,0,0,0,0,0,
0,0,0,0,0,0,0,0,0,0,0,0,0,0,0,0,
0,0,0,0,0,0,0,0,0,0,0,0,0,0,0,0,
0,0,0,0,0,0,0,0,0,0,0,0,0,0,0,0,
0,0,0,0,0,0,0,0,0,0,0,0,0,0,0,0,
0,0,0,0,0,0,0,0,0,0,0,0,0,0,0,0,
0,0,0,0,0,0,0,0,0,0,0,0,0,0,0,0,
0,0,0,0,0,0,0,0,0,0,0,0,0,0,0,0,
0,0,0,0,0,0,0,0,0,0,0,0,0,0,0,0,
0,0,0,0,0,0,0,0,0,0,0,0,0,0,0,0,
0,0,0,0,0,0,0,0,0,0,0,0,0,0,0,0,
0,0,0,0,0,0,0,0,0,0,0,0,0,0,0,0,
0,0,0,0,0,0,0,0,0,0,0,0,0,0,0,0
</chunk>
  </data>
 </layer>
 <layer id="10" name="resourcesLayerOLD" width="30" height="20" visible="0" locked="1">
  <data encoding="csv">
   <chunk x="0" y="-32" width="16" height="16">
0,0,0,0,0,0,0,0,0,0,0,0,0,0,0,0,
0,0,0,0,0,0,0,0,0,0,0,0,0,0,0,0,
0,0,0,0,0,0,0,0,0,0,0,0,0,0,0,0,
0,0,0,0,0,0,0,0,0,0,0,0,0,0,0,0,
0,0,0,0,0,0,0,0,0,0,0,0,0,0,0,0,
0,0,0,0,0,0,0,0,0,0,0,0,0,0,0,0,
0,0,0,0,0,0,0,0,0,0,0,0,0,0,0,0,
0,0,0,0,14,14,14,0,0,0,0,0,0,0,0,0,
0,0,0,0,14,14,14,0,0,0,0,0,0,0,0,0,
0,0,0,0,0,14,14,0,0,0,18,18,0,0,0,0,
0,0,0,0,0,0,0,0,0,0,18,18,0,0,0,0,
0,0,0,0,0,0,0,0,0,0,0,0,0,0,0,0,
0,0,0,0,0,0,0,0,0,0,0,0,0,0,0,0,
0,0,0,0,0,0,0,0,0,0,0,0,0,0,0,0,
0,0,0,0,0,0,0,0,0,0,0,0,0,0,0,0,
0,0,0,0,0,0,0,0,0,0,0,0,0,0,0,0
</chunk>
   <chunk x="-16" y="-16" width="16" height="16">
0,0,0,0,0,0,0,15,15,15,15,15,15,0,0,0,
0,0,0,0,0,0,15,15,15,15,15,15,15,15,0,0,
0,0,0,0,0,0,15,15,15,15,15,15,15,15,0,0,
0,0,0,0,0,0,15,15,15,15,15,15,15,15,0,0,
0,0,0,0,0,0,15,15,15,15,15,15,15,0,0,0,
0,0,0,0,0,0,0,15,15,15,15,15,15,0,0,0,
0,0,0,0,0,0,0,15,15,15,15,15,0,0,0,0,
0,0,0,0,0,0,0,0,0,0,0,0,0,0,0,0,
0,0,0,0,0,0,17,17,0,0,16,16,0,0,18,18,
0,0,0,0,0,0,17,17,0,0,16,16,0,0,18,18,
0,0,0,14,0,0,0,0,0,0,0,0,0,0,0,0,
0,0,14,14,14,0,0,0,0,0,20,20,0,0,0,0,
0,0,14,14,14,0,0,0,0,0,20,20,0,0,0,0,
0,0,14,14,14,0,0,0,0,0,0,0,0,0,0,0,
0,0,14,14,14,0,0,0,0,0,0,0,0,0,0,0,
0,0,14,14,14,0,0,0,0,0,0,0,0,0,0,0
</chunk>
   <chunk x="0" y="-16" width="16" height="16">
0,0,0,0,0,0,0,0,0,0,0,0,0,0,0,0,
0,0,0,0,0,0,0,0,0,0,0,0,0,0,0,0,
0,0,0,0,0,0,0,0,0,0,0,0,0,0,0,0,
0,0,0,0,0,0,0,0,0,0,0,0,0,0,0,0,
0,0,0,0,0,0,0,0,0,0,0,0,0,0,0,0,
0,0,0,0,0,0,0,0,0,0,0,0,0,0,0,0,
0,0,0,0,0,0,0,0,0,0,0,0,0,0,0,0,
0,0,0,0,0,0,0,0,0,0,0,0,0,0,0,0,
0,0,0,0,0,0,0,0,0,0,0,0,0,0,0,0,
0,14,14,0,0,0,0,0,0,0,0,0,0,0,0,0,
0,14,14,14,0,0,0,0,0,0,0,0,0,0,0,0,
0,0,0,14,14,0,0,0,0,0,0,0,0,0,0,0,
0,0,0,14,14,14,0,0,0,0,0,0,0,0,0,0,
0,0,0,14,14,14,0,0,0,0,0,0,0,0,0,0,
0,0,0,14,0,0,0,0,0,0,0,0,0,0,0,0,
0,0,0,14,0,0,0,0,0,0,0,0,0,0,0,0
</chunk>
   <chunk x="16" y="-16" width="16" height="16">
0,0,0,0,0,0,0,0,0,0,0,0,0,0,0,0,
0,0,0,0,0,0,0,0,0,0,0,0,0,0,0,0,
0,0,0,0,0,0,0,0,0,0,0,0,0,0,0,0,
0,0,0,0,0,0,0,0,0,0,0,0,0,0,0,0,
21,0,0,0,0,0,0,0,0,0,0,0,0,0,0,0,
0,0,22,0,0,0,0,0,0,0,0,0,0,0,0,0,
0,0,22,22,0,0,0,0,0,0,0,0,0,0,0,0,
0,0,0,0,0,0,0,0,0,0,0,0,0,0,0,0,
0,0,0,0,0,0,0,0,0,0,0,0,0,0,0,0,
0,0,0,0,0,0,0,0,0,0,0,0,0,0,0,0,
0,0,0,0,0,0,0,0,0,0,0,0,0,0,0,0,
0,0,0,0,14,14,0,0,0,0,0,0,0,0,0,0,
0,0,0,14,14,14,22,0,0,0,0,0,0,0,0,0,
0,0,0,14,14,14,0,0,0,0,0,0,0,0,0,0,
0,0,0,0,0,0,0,0,0,0,0,0,0,0,0,0,
0,0,0,0,0,0,0,0,0,0,0,0,0,0,0,0
</chunk>
   <chunk x="-32" y="0" width="16" height="16">
0,0,0,0,0,0,0,0,0,0,0,0,0,0,0,0,
0,0,0,0,0,0,0,0,0,0,0,0,0,0,0,0,
0,0,0,0,0,0,0,0,0,0,0,0,0,0,0,0,
0,0,0,0,0,0,0,0,0,0,22,22,22,22,22,22,
0,0,0,0,0,0,0,0,0,0,22,22,22,22,22,22,
0,0,0,0,0,0,0,0,0,0,22,22,22,22,22,22,
0,0,0,0,0,0,0,0,0,0,22,22,22,22,22,22,
0,0,0,0,0,0,0,0,0,22,22,22,22,22,22,0,
0,0,0,0,0,0,0,0,0,22,22,22,22,0,0,0,
0,0,0,0,0,0,0,0,22,22,22,22,0,0,0,0,
0,0,0,0,0,0,0,0,22,22,0,0,0,0,0,0,
0,0,0,0,0,0,0,0,22,22,0,0,0,0,0,0,
0,0,0,0,0,0,0,0,22,22,0,0,0,0,0,0,
0,0,0,0,0,0,0,0,22,22,0,0,0,0,0,0,
0,0,0,0,0,0,0,0,22,22,0,0,0,0,0,0,
0,0,0,0,0,0,0,0,22,22,0,0,0,0,0,0
</chunk>
   <chunk x="-16" y="0" width="16" height="16">
0,0,14,14,14,0,0,0,0,0,0,0,0,0,0,0,
0,0,14,14,14,0,0,0,0,0,0,0,0,21,0,0,
0,14,14,14,0,0,0,0,0,0,0,0,0,21,0,0,
0,14,14,14,0,0,0,0,0,0,0,0,0,0,0,0,
0,0,0,0,0,0,0,0,0,0,0,0,0,0,0,0,
0,0,0,0,0,0,0,0,0,0,0,0,0,0,0,0,
0,0,0,0,0,0,0,0,0,0,0,0,0,0,0,0,
0,0,0,0,0,0,0,0,0,0,0,0,0,0,0,0,
0,0,0,0,0,0,0,0,0,0,0,0,0,0,0,0,
0,0,0,0,0,0,0,0,0,0,0,0,0,0,0,0,
0,0,0,0,0,0,0,0,0,0,0,0,0,0,0,0,
0,0,0,0,0,0,0,0,0,0,0,0,0,0,0,0,
0,0,0,0,0,0,0,0,0,0,0,0,0,0,0,0,
0,0,0,0,0,0,0,0,0,0,0,0,0,0,0,0,
0,0,0,0,0,0,0,0,0,0,0,0,0,0,0,0,
0,0,0,0,0,0,0,0,0,0,0,0,0,0,0,0
</chunk>
   <chunk x="0" y="0" width="16" height="16">
0,0,0,14,0,0,0,0,0,0,0,0,0,0,0,0,
0,0,0,14,0,0,0,0,0,0,0,0,0,0,0,0,
0,0,0,14,0,0,0,0,0,0,0,0,0,0,0,0,
0,0,14,14,0,0,0,0,0,0,0,0,0,0,0,0,
0,0,14,14,0,0,0,0,0,0,0,0,0,0,0,0,
0,0,0,14,0,0,0,0,0,0,0,0,0,0,0,0,
0,0,0,0,0,0,0,0,0,0,0,0,0,0,0,0,
0,0,0,0,0,0,0,0,0,0,0,0,0,0,0,0,
0,0,0,0,0,0,0,0,0,0,0,0,0,0,0,0,
0,0,0,0,0,0,0,0,0,0,0,0,0,0,0,0,
0,0,0,0,0,0,0,0,0,0,0,0,0,0,0,0,
0,0,0,0,0,0,0,0,0,0,0,0,0,0,0,0,
0,0,0,0,0,0,0,0,0,0,0,0,0,0,0,0,
0,0,0,0,0,0,0,0,0,0,0,0,0,0,0,0,
0,0,0,0,0,0,0,0,0,0,0,0,0,0,0,0,
0,0,0,0,0,0,0,0,0,0,0,0,0,0,0,0
</chunk>
   <chunk x="16" y="0" width="16" height="16">
0,0,0,0,0,0,0,0,0,0,0,0,0,0,0,0,
0,0,0,0,0,0,0,0,0,0,0,0,0,0,0,0,
0,0,0,0,0,0,0,0,0,0,0,0,0,0,0,0,
0,0,0,0,0,0,0,0,0,0,0,0,0,0,0,0,
0,0,0,0,0,0,0,0,0,0,0,0,0,0,0,0,
0,0,0,0,0,0,0,0,0,0,0,0,0,0,0,0,
0,0,0,0,0,0,0,0,0,0,0,0,0,0,0,0,
0,0,0,0,0,0,0,0,0,0,0,0,0,0,0,0,
0,0,0,0,0,0,0,0,0,0,0,0,0,0,0,0,
0,0,0,0,0,0,0,0,0,0,0,0,0,0,0,0,
0,0,0,0,0,0,0,0,0,0,0,0,0,0,0,0,
0,0,0,0,0,0,0,0,0,0,0,0,0,0,0,0,
0,0,0,0,0,0,0,0,15,0,0,0,0,0,0,0,
0,0,0,0,0,0,0,0,0,15,0,0,0,0,0,0,
0,0,0,0,0,0,0,0,0,0,0,0,0,0,0,0,
0,0,0,0,0,0,0,0,0,0,0,0,0,0,0,0
</chunk>
   <chunk x="-32" y="16" width="16" height="16">
0,0,0,0,0,0,0,0,22,22,0,0,0,0,0,0,
0,0,0,0,0,0,0,0,22,22,0,0,0,0,0,0,
0,0,0,0,0,0,0,0,22,22,0,0,0,0,0,0,
0,0,0,0,0,0,0,0,22,22,22,0,0,0,0,0,
0,0,0,0,0,0,0,0,22,22,22,0,0,0,0,0,
0,0,0,0,0,0,0,0,0,22,22,22,0,22,0,0,
0,0,0,0,0,0,0,0,0,0,22,22,22,22,0,0,
0,0,0,0,0,0,0,0,0,0,0,22,22,22,0,0,
0,0,0,0,0,0,0,0,0,0,0,0,22,22,0,0,
0,0,0,0,0,0,0,0,0,0,0,0,0,0,0,0,
0,0,0,0,0,0,0,0,0,0,0,0,0,0,0,0,
0,0,0,0,0,0,0,0,0,0,0,0,0,0,0,0,
0,0,0,0,0,0,0,0,0,0,0,0,0,0,0,0,
0,0,0,0,0,0,0,0,0,0,0,0,0,0,0,0,
0,0,0,0,0,0,0,0,0,0,0,0,0,0,0,0,
0,0,0,0,0,0,0,0,0,0,0,0,0,0,0,0
</chunk>
   <chunk x="0" y="16" width="16" height="16">
0,0,0,0,0,0,0,0,0,0,0,0,0,0,0,0,
0,0,0,0,0,0,0,0,0,0,0,0,15,15,0,0,
0,0,0,0,0,0,0,0,0,0,0,0,0,0,0,0,
0,0,0,0,0,0,0,0,0,0,0,0,0,0,0,0,
0,0,0,0,0,0,0,0,0,0,0,0,0,0,0,0,
0,0,0,0,0,0,0,0,0,0,0,0,0,0,0,0,
0,0,0,0,0,0,0,0,0,0,0,0,0,0,0,0,
0,0,0,0,0,0,0,0,0,0,0,0,0,0,0,0,
0,0,0,0,0,0,0,0,0,0,0,0,0,0,0,0,
0,0,0,0,0,0,0,0,0,0,0,0,0,0,0,0,
0,0,0,0,0,0,0,0,0,0,0,0,0,0,0,0,
0,0,0,0,0,0,0,0,0,0,0,0,0,0,0,0,
0,0,0,0,0,0,0,0,0,0,0,0,0,0,0,0,
0,0,0,0,0,0,0,0,0,0,0,0,0,0,0,0,
0,0,0,0,0,0,0,0,0,0,0,0,0,0,0,0,
0,0,0,0,0,0,0,0,0,0,0,0,0,0,0,0
</chunk>
  </data>
 </layer>
 <layer id="7" name="zones" width="30" height="20">
  <data encoding="csv">
   <chunk x="-32" y="-16" width="16" height="16">
0,0,0,0,0,0,0,0,0,0,0,0,0,0,0,0,
0,0,0,0,0,0,0,0,0,0,0,0,0,0,0,0,
0,0,0,0,0,0,0,0,0,0,0,0,0,0,0,0,
0,0,0,0,0,0,0,0,0,0,0,0,0,0,0,0,
0,0,0,0,0,0,0,0,0,0,0,0,0,0,0,0,
0,0,0,0,0,0,0,0,0,0,0,0,0,0,0,0,
0,0,0,0,0,0,0,0,0,0,0,0,0,0,0,0,
0,0,0,0,0,0,0,0,0,0,0,0,0,0,0,0,
0,0,0,0,0,0,0,0,0,0,0,0,0,0,0,0,
0,0,0,0,0,0,0,0,0,0,0,0,0,0,0,0,
0,0,0,0,0,0,0,0,0,0,0,0,0,0,0,0,
0,0,0,0,0,0,0,0,0,0,0,0,0,0,0,0,
0,0,0,0,0,0,3,3,3,3,3,3,3,3,3,3,
0,0,0,0,0,0,3,3,3,3,3,3,3,3,3,3,
0,0,0,0,0,0,3,3,3,3,3,3,3,3,3,3,
0,0,0,0,0,0,3,3,3,3,3,3,3,3,3,3
</chunk>
   <chunk x="-16" y="-16" width="16" height="16">
0,0,0,0,0,0,0,0,0,0,0,0,0,0,0,0,
0,0,0,0,0,0,0,0,0,0,0,0,0,0,0,0,
0,0,0,0,0,0,0,0,0,0,0,0,0,0,0,0,
0,0,0,0,0,0,0,0,0,0,0,0,0,0,0,0,
0,0,0,0,0,0,0,0,0,0,0,0,0,0,0,0,
0,0,0,0,0,0,0,0,0,0,0,0,0,0,0,0,
0,0,0,0,0,0,0,0,0,0,0,0,0,0,0,0,
0,0,0,0,0,0,0,0,0,0,0,0,0,0,0,0,
0,0,0,0,0,0,0,0,0,0,0,0,0,0,0,0,
0,0,0,0,0,0,0,0,0,0,0,0,0,0,0,0,
0,0,0,0,0,0,0,0,0,0,0,0,0,0,0,0,
0,0,0,0,0,0,0,0,0,0,0,0,0,0,0,0,
3,3,3,3,3,3,3,3,3,3,3,3,3,3,3,3,
3,3,3,3,3,3,3,3,3,3,3,3,3,3,3,3,
3,3,3,3,3,3,3,3,3,3,3,3,3,3,3,3,
3,3,3,3,3,3,3,3,3,3,3,3,3,3,3,3
</chunk>
   <chunk x="0" y="-16" width="16" height="16">
0,0,0,0,0,0,0,0,0,0,0,0,0,0,0,0,
0,0,0,0,0,0,0,0,0,0,0,0,0,0,0,0,
0,0,0,0,0,0,0,0,0,0,0,0,0,0,0,0,
0,0,0,0,0,0,0,0,0,0,0,0,0,0,0,0,
0,0,0,0,0,0,0,0,0,0,0,0,0,0,0,0,
0,0,0,0,0,0,0,0,0,0,0,0,0,0,0,0,
0,0,0,0,0,0,0,0,0,0,0,0,0,0,0,0,
0,0,0,0,0,0,0,0,0,0,0,0,0,0,0,0,
0,0,0,0,0,0,0,0,0,0,0,0,0,0,0,0,
0,0,0,0,0,0,0,0,0,0,0,0,0,0,0,0,
0,0,0,0,0,0,0,0,0,0,0,0,0,0,0,0,
0,0,0,0,0,0,0,0,0,0,0,0,0,0,0,0,
3,3,3,3,3,3,3,3,3,3,3,3,3,3,6,6,
3,3,3,3,3,3,3,3,3,3,3,3,6,6,6,6,
3,3,3,3,3,3,3,3,3,3,3,3,6,6,6,6,
3,3,3,3,3,3,3,3,3,3,3,6,6,6,6,6
</chunk>
   <chunk x="16" y="-16" width="16" height="16">
0,0,0,0,0,0,0,0,0,0,0,0,0,0,0,0,
0,0,0,0,0,0,0,0,0,0,0,0,0,0,0,0,
0,0,0,0,0,0,0,0,0,0,0,0,0,0,0,0,
0,0,0,0,0,0,0,0,0,0,0,0,0,0,0,0,
0,0,0,0,0,0,0,0,0,0,0,0,0,0,0,0,
0,0,0,0,0,0,0,0,0,0,0,0,0,0,0,0,
0,0,0,0,0,0,0,0,0,0,0,0,0,0,0,0,
0,0,0,0,0,0,0,0,0,0,0,0,0,0,0,0,
0,0,0,0,0,0,0,0,0,0,0,0,0,0,0,0,
0,0,0,0,0,0,0,0,0,0,0,0,0,0,0,0,
0,0,0,0,0,0,0,0,0,0,0,0,0,0,0,0,
0,0,0,0,0,0,0,0,0,0,0,0,0,0,0,0,
6,6,6,6,6,6,6,3,3,3,3,3,3,3,3,3,
6,6,6,6,6,6,6,6,3,3,3,3,3,3,3,3,
6,6,6,6,6,6,6,6,6,6,3,3,3,3,3,3,
6,6,6,6,6,6,6,6,6,6,6,3,3,3,3,3
</chunk>
   <chunk x="32" y="-16" width="16" height="16">
0,0,0,0,0,0,0,0,0,0,0,0,0,0,0,0,
0,0,0,0,0,0,0,0,0,0,0,0,0,0,0,0,
0,0,0,0,0,0,0,0,0,0,0,0,0,0,0,0,
0,0,0,0,0,0,0,0,0,0,0,0,0,0,0,0,
0,0,0,0,0,0,0,0,0,0,0,0,0,0,0,0,
0,0,0,0,0,0,0,0,0,0,0,0,0,0,0,0,
0,0,0,0,0,0,0,0,0,0,0,0,0,0,0,0,
0,0,0,0,0,0,0,0,0,0,0,0,0,0,0,0,
0,0,0,0,0,0,0,0,0,0,0,0,0,0,0,0,
0,0,0,0,0,0,0,0,0,0,0,0,0,0,0,0,
0,0,0,0,0,0,0,0,0,0,0,0,0,0,0,0,
0,0,0,0,0,0,0,0,0,0,0,0,0,0,0,0,
3,3,3,3,3,3,3,0,0,0,0,0,0,0,0,0,
3,3,3,3,3,3,3,0,0,0,0,0,0,0,0,0,
3,3,3,3,3,3,3,0,0,0,0,0,0,0,0,0,
3,3,3,3,3,3,3,0,0,0,0,0,0,0,0,0
</chunk>
   <chunk x="-32" y="0" width="16" height="16">
0,0,0,0,0,0,3,3,3,3,3,3,3,3,3,3,
0,0,0,0,0,0,3,3,3,3,3,3,3,3,3,3,
0,0,0,0,0,0,3,3,3,3,3,3,3,3,3,3,
0,0,0,0,0,3,3,3,3,3,3,3,3,3,3,3,
0,0,0,0,0,3,3,3,3,3,3,3,3,3,3,3,
0,0,0,0,0,3,3,3,3,3,3,3,3,3,3,3,
0,0,0,0,3,3,3,3,3,3,3,3,3,3,3,3,
0,0,0,0,3,3,3,3,3,3,3,3,3,3,3,3,
0,0,0,0,3,3,3,3,3,3,3,3,3,3,3,3,
0,0,0,0,3,3,3,3,3,3,3,3,3,3,3,3,
0,0,0,0,3,3,3,3,3,3,3,3,3,3,3,3,
0,0,0,0,3,3,3,3,3,3,3,3,3,3,3,3,
0,0,0,0,0,3,3,3,3,3,3,3,3,3,3,3,
0,0,0,0,0,3,3,3,3,3,3,3,3,3,3,3,
0,0,0,0,0,3,3,3,3,3,3,3,3,3,3,3,
0,0,0,0,0,3,3,3,3,3,3,3,3,3,3,3
</chunk>
   <chunk x="-16" y="0" width="16" height="16">
3,3,3,3,3,3,3,3,3,3,3,3,3,3,3,3,
3,3,3,3,3,3,3,3,3,3,3,3,3,3,3,3,
3,3,3,3,3,3,3,3,3,3,3,3,3,3,3,3,
3,3,3,3,3,3,3,3,3,3,3,3,3,3,3,3,
3,3,3,3,3,3,3,3,3,3,3,3,3,3,3,3,
3,3,3,3,3,3,3,3,3,3,3,3,3,3,3,3,
3,3,4,4,4,4,4,4,4,4,4,4,4,4,4,3,
4,4,4,4,4,4,4,4,4,4,4,4,4,4,4,4,
4,4,4,4,4,4,4,4,4,4,4,4,4,4,4,4,
4,4,4,4,4,4,4,4,4,4,4,4,4,4,4,4,
4,4,4,4,4,4,4,4,4,4,4,4,4,4,4,4,
4,4,4,4,4,4,4,4,4,4,4,4,4,4,4,3,
3,4,4,4,4,4,4,4,4,4,4,4,4,4,3,3,
3,4,4,4,4,4,4,4,4,4,4,4,4,4,3,3,
3,3,4,4,4,4,4,4,4,4,4,4,4,4,3,3,
3,3,3,4,4,4,4,4,4,4,4,4,4,4,3,3
</chunk>
   <chunk x="0" y="0" width="16" height="16">
3,3,3,3,3,3,3,3,3,3,3,6,6,6,6,6,
3,3,3,3,3,3,3,3,3,3,3,6,6,6,6,6,
3,3,3,3,3,3,3,3,3,3,3,6,6,6,6,6,
3,3,3,3,3,3,3,3,3,3,3,6,6,6,6,6,
3,3,3,3,3,3,3,3,3,3,3,6,6,6,6,6,
3,3,3,3,3,3,3,3,3,3,3,3,6,6,6,6,
3,3,3,3,3,3,3,3,3,3,3,3,6,6,6,6,
4,3,3,3,3,3,3,3,3,3,3,3,6,6,6,6,
4,3,3,3,3,3,3,3,3,3,3,3,3,6,6,6,
4,3,3,3,3,3,3,3,3,3,3,3,3,6,6,6,
4,3,3,3,3,3,3,3,3,3,3,3,3,3,6,6,
3,3,3,3,3,3,3,3,3,3,3,3,3,3,3,3,
3,3,3,3,3,3,3,3,3,3,3,3,3,3,3,3,
3,3,3,3,3,3,3,3,3,3,3,3,3,3,3,3,
3,3,3,3,3,3,3,3,3,3,3,3,3,3,3,3,
3,3,3,3,3,3,3,3,3,3,3,3,3,3,3,3
</chunk>
   <chunk x="16" y="0" width="16" height="16">
6,6,6,6,6,6,6,6,6,6,6,6,3,3,3,3,
6,6,6,6,6,6,6,6,6,6,6,6,3,3,3,3,
6,6,6,6,6,6,6,6,6,6,6,6,6,3,3,3,
6,6,6,6,6,6,6,6,6,6,6,6,6,3,3,3,
6,6,6,6,6,6,6,6,6,6,6,6,6,6,3,3,
6,6,6,6,6,6,6,6,6,6,6,6,6,6,6,3,
6,6,6,6,6,6,6,6,6,6,6,6,6,6,6,3,
6,6,6,6,6,6,6,6,6,6,6,6,6,6,3,3,
6,6,6,6,6,6,6,6,6,6,6,6,6,6,5,5,
6,6,6,6,6,6,6,6,6,6,6,6,6,5,5,5,
6,6,6,6,6,6,6,6,6,6,6,6,5,5,5,5,
6,6,6,6,6,6,6,6,6,6,5,5,5,5,5,5,
3,3,5,5,5,5,5,5,5,5,5,5,5,5,5,5,
3,3,3,3,3,3,5,5,5,5,5,5,5,5,5,5,
3,3,3,3,3,3,5,5,5,5,5,5,5,5,5,5,
3,3,3,3,3,3,5,5,5,5,5,5,5,5,5,5
</chunk>
   <chunk x="32" y="0" width="16" height="16">
3,3,3,3,3,3,3,0,0,0,0,0,0,0,0,0,
3,3,3,3,3,3,3,0,0,0,0,0,0,0,0,0,
3,3,3,3,3,3,3,0,0,0,0,0,0,0,0,0,
3,3,3,3,3,3,3,0,0,0,0,0,0,0,0,0,
3,3,3,3,3,3,3,0,0,0,0,0,0,0,0,0,
3,3,3,3,3,3,3,0,0,0,0,0,0,0,0,0,
3,3,3,3,3,3,3,0,0,0,0,0,0,0,0,0,
3,3,3,3,3,3,3,0,0,0,0,0,0,0,0,0,
5,5,5,5,3,3,3,0,0,0,0,0,0,0,0,0,
5,5,5,5,5,3,3,0,0,0,0,0,0,0,0,0,
5,5,5,5,5,5,3,0,0,0,0,0,0,0,0,0,
5,5,5,5,5,5,5,0,0,0,0,0,0,0,0,0,
5,5,5,5,5,5,5,5,0,0,0,0,0,0,0,0,
5,5,5,5,5,5,5,5,5,0,0,0,0,0,0,0,
5,5,5,5,5,5,5,5,5,5,0,0,0,0,0,0,
5,5,5,5,5,5,5,5,5,5,0,0,0,0,0,0
</chunk>
   <chunk x="-32" y="16" width="16" height="16">
0,0,0,0,0,3,3,3,3,3,3,3,3,3,3,3,
0,0,0,0,0,3,3,3,3,3,3,3,3,3,3,3,
0,0,0,0,0,3,3,3,3,3,3,3,3,3,3,3,
0,0,0,0,0,3,3,3,3,3,3,3,3,3,3,3,
0,0,0,0,0,0,3,3,3,3,3,3,3,3,3,3,
0,0,0,0,0,0,3,3,3,3,3,3,3,3,3,3,
0,0,0,0,0,0,3,3,3,3,3,3,3,3,3,3,
0,0,0,0,0,0,3,3,3,3,3,3,3,3,3,3,
0,0,0,0,0,0,3,3,3,3,3,3,3,3,3,3,
0,0,0,0,0,0,3,3,3,3,3,3,3,3,3,3,
0,0,0,0,0,0,3,3,3,3,3,3,3,3,3,3,
0,0,0,0,0,0,3,3,3,3,3,3,3,3,3,3,
0,0,0,0,0,0,3,3,3,3,3,3,3,3,3,3,
0,0,0,0,0,0,3,3,3,3,3,3,3,3,3,3,
0,0,0,0,0,0,3,3,3,3,3,3,3,3,3,3,
0,0,0,0,0,0,3,3,3,3,3,3,3,3,3,3
</chunk>
   <chunk x="-16" y="16" width="16" height="16">
3,3,3,3,4,4,4,4,4,4,4,4,4,4,3,3,
3,3,3,3,3,4,4,4,4,4,4,4,4,4,3,3,
3,3,3,3,3,3,3,3,3,3,3,3,3,3,3,3,
3,3,3,3,3,3,3,3,3,3,3,3,3,3,3,3,
3,3,3,3,3,3,3,3,3,3,3,3,3,3,3,3,
3,3,3,3,3,3,3,3,3,3,3,3,3,3,3,3,
3,3,3,3,3,3,3,3,3,3,3,2,2,2,2,2,
3,3,3,3,3,3,3,3,3,3,2,2,2,2,2,2,
3,3,3,3,3,3,3,3,2,2,2,2,2,2,2,2,
3,3,3,3,3,3,3,3,2,2,2,2,2,2,2,2,
3,3,3,3,3,3,3,3,2,2,2,2,2,2,2,2,
3,3,3,3,3,3,3,3,2,2,2,2,2,2,1,1,
3,3,3,3,3,3,3,3,3,3,1,1,1,1,1,1,
3,3,3,3,3,3,3,3,3,3,3,1,1,1,1,1,
3,3,3,3,3,3,3,3,3,3,3,1,1,1,1,1,
3,3,3,3,3,3,3,3,3,3,3,3,1,1,1,1
</chunk>
   <chunk x="0" y="16" width="16" height="16">
3,3,3,3,3,3,3,3,3,3,3,3,3,3,3,3,
3,3,3,3,3,3,3,3,3,3,3,3,3,3,3,3,
3,3,3,3,3,3,3,3,3,3,3,3,3,3,3,3,
3,3,3,3,3,3,3,3,3,3,3,3,3,3,3,3,
3,3,3,3,3,3,3,3,3,3,3,3,3,3,3,3,
3,2,2,2,3,3,3,3,3,3,3,3,3,3,3,3,
2,2,2,2,3,3,3,3,3,3,3,3,3,3,3,3,
2,2,2,2,2,3,3,3,3,3,3,3,3,3,3,3,
2,2,2,2,2,3,3,3,3,3,3,3,3,3,3,3,
2,2,2,2,2,2,3,3,3,3,3,3,3,3,3,3,
2,2,2,2,2,2,2,2,2,3,3,3,3,3,3,3,
1,1,1,2,2,2,2,2,2,3,3,3,3,3,3,3,
1,1,1,1,1,2,2,2,2,3,3,3,3,3,3,3,
1,1,1,1,1,2,2,2,2,3,3,3,3,3,3,3,
1,1,1,1,2,2,2,2,2,3,3,3,3,3,3,3,
1,1,3,3,3,3,3,3,3,3,3,3,3,3,3,5
</chunk>
   <chunk x="16" y="16" width="16" height="16">
3,3,3,3,3,3,5,5,5,5,5,5,5,5,5,5,
3,3,3,3,3,3,5,5,5,5,5,5,5,5,5,5,
3,3,3,3,3,3,5,5,5,5,5,5,5,5,5,5,
3,3,3,3,3,3,5,5,5,5,5,5,5,5,5,5,
3,3,3,3,3,3,5,5,5,5,5,5,5,5,5,5,
3,3,3,3,5,5,5,5,5,5,5,5,5,5,5,5,
3,3,3,3,5,5,5,5,5,5,5,5,5,5,5,5,
3,3,3,3,5,5,5,5,5,5,5,5,5,5,5,5,
3,3,3,5,5,5,5,5,5,5,5,5,5,5,5,5,
3,3,5,5,5,5,5,5,5,5,5,5,5,5,5,5,
3,3,5,5,5,5,5,5,5,5,5,5,5,5,5,5,
3,3,5,5,5,5,5,5,5,5,5,5,5,5,5,5,
3,5,5,5,5,5,5,5,5,5,5,5,5,5,5,5,
5,5,5,5,5,5,5,5,5,5,5,5,5,5,5,5,
5,5,5,5,5,5,5,5,5,5,5,5,5,5,5,5,
5,5,5,5,5,5,5,5,5,5,5,5,5,5,5,5
</chunk>
   <chunk x="32" y="16" width="16" height="16">
5,5,5,5,5,5,5,5,5,5,5,0,0,0,0,0,
5,5,5,5,5,5,5,5,5,5,5,0,0,0,0,0,
5,5,5,5,5,5,5,5,5,5,5,5,0,0,0,0,
5,5,5,5,5,5,5,5,5,5,5,5,0,0,0,0,
5,5,5,5,5,5,5,5,5,5,5,5,0,0,0,0,
5,5,5,5,5,5,5,5,5,5,5,5,5,0,0,0,
5,5,5,5,5,5,5,5,5,5,5,5,5,0,0,0,
5,5,5,5,5,5,5,5,5,5,5,5,5,0,0,0,
5,5,5,5,5,5,5,5,5,5,5,5,5,0,0,0,
5,5,5,5,5,5,5,5,5,5,5,5,5,5,0,0,
5,5,5,5,5,5,5,5,5,5,5,5,5,5,0,0,
5,5,5,5,5,5,5,5,5,5,5,5,5,5,0,0,
5,5,5,5,5,5,5,5,5,5,5,5,5,5,0,0,
5,5,5,5,5,5,5,5,5,5,5,5,5,5,0,0,
5,5,5,5,5,5,5,5,5,5,5,5,5,5,0,0,
5,5,5,5,5,5,5,5,5,5,5,5,5,5,0,0
</chunk>
   <chunk x="-32" y="32" width="16" height="16">
0,0,0,0,0,0,3,3,3,3,3,3,3,3,3,3,
0,0,0,0,0,0,3,3,3,3,3,3,3,3,3,3,
0,0,0,0,0,0,3,3,3,3,3,3,3,3,3,3,
0,0,0,0,0,0,3,3,3,3,3,3,3,3,3,3,
0,0,0,0,0,0,3,3,3,3,3,3,3,3,3,3,
0,0,0,0,0,0,3,3,3,3,3,3,3,3,3,3,
0,0,0,0,0,0,3,3,3,3,3,3,3,3,3,3,
0,0,0,0,0,0,3,3,3,3,3,3,3,3,3,3,
0,0,0,0,0,0,3,3,3,3,3,3,3,3,3,3,
0,0,0,0,0,0,3,3,3,3,3,3,3,3,3,3,
0,0,0,0,0,0,0,0,0,0,0,0,0,0,0,0,
0,0,0,0,0,0,0,0,0,0,0,0,0,0,0,0,
0,0,0,0,0,0,0,0,0,0,0,0,0,0,0,0,
0,0,0,0,0,0,0,0,0,0,0,0,0,0,0,0,
0,0,0,0,0,0,0,0,0,0,0,0,0,0,0,0,
0,0,0,0,0,0,0,0,0,0,0,0,0,0,0,0
</chunk>
   <chunk x="-16" y="32" width="16" height="16">
3,3,3,3,3,3,3,3,3,3,3,3,3,3,3,3,
3,3,3,3,3,3,3,3,3,3,3,3,3,3,3,3,
3,3,3,3,3,3,3,3,3,3,3,3,3,3,3,3,
3,3,3,3,3,3,3,3,3,3,3,3,3,3,3,3,
3,3,3,3,3,3,3,3,3,3,3,3,3,3,3,3,
3,3,3,3,3,3,3,3,3,3,3,3,3,3,3,3,
3,3,3,3,3,3,3,3,3,3,3,3,3,3,3,3,
3,3,3,3,3,3,3,3,3,3,3,3,3,3,3,3,
3,3,3,3,3,3,3,3,3,3,3,3,3,3,3,3,
3,3,3,3,3,3,3,3,3,3,3,3,3,3,3,3,
0,0,0,0,0,0,0,0,0,0,0,0,0,0,0,0,
0,0,0,0,0,0,0,0,0,0,0,0,0,0,0,0,
0,0,0,0,0,0,0,0,0,0,0,0,0,0,0,0,
0,0,0,0,0,0,0,0,0,0,0,0,0,0,0,0,
0,0,0,0,0,0,0,0,0,0,0,0,0,0,0,0,
0,0,0,0,0,0,0,0,0,0,0,0,0,0,0,0
</chunk>
   <chunk x="0" y="32" width="16" height="16">
3,3,3,3,3,3,3,3,3,3,3,3,3,3,3,5,
3,3,3,3,3,3,3,3,3,3,3,3,3,3,3,5,
3,3,3,3,3,3,3,3,3,3,3,3,3,3,3,5,
3,3,3,3,3,3,3,3,3,3,3,3,3,3,3,3,
3,3,3,3,3,3,3,3,3,3,3,3,3,3,3,3,
3,3,3,3,3,3,3,3,3,3,3,3,3,3,3,3,
3,3,3,3,3,3,3,3,3,3,3,3,3,3,3,3,
3,3,3,3,3,3,3,3,3,3,3,3,3,3,3,3,
3,3,3,3,3,3,3,3,3,3,3,3,3,3,3,3,
3,3,3,3,3,3,3,3,3,3,3,3,3,3,3,3,
0,0,0,0,0,0,0,0,0,0,0,0,0,0,0,0,
0,0,0,0,0,0,0,0,0,0,0,0,0,0,0,0,
0,0,0,0,0,0,0,0,0,0,0,0,0,0,0,0,
0,0,0,0,0,0,0,0,0,0,0,0,0,0,0,0,
0,0,0,0,0,0,0,0,0,0,0,0,0,0,0,0,
0,0,0,0,0,0,0,0,0,0,0,0,0,0,0,0
</chunk>
   <chunk x="16" y="32" width="16" height="16">
5,5,5,5,5,5,5,5,5,5,5,5,5,5,5,5,
5,5,5,5,5,5,5,5,5,5,5,5,5,5,5,5,
5,5,5,5,5,5,5,5,5,5,5,5,5,5,5,5,
5,5,5,5,5,5,5,5,5,5,5,5,5,5,5,5,
5,5,5,5,5,5,5,5,5,5,5,5,5,5,5,5,
3,5,5,5,5,5,5,5,5,5,5,5,5,5,5,5,
3,5,5,5,5,5,5,5,5,5,5,5,5,5,5,5,
3,5,5,5,5,5,5,5,5,5,5,5,5,5,5,5,
3,5,5,5,5,5,5,5,5,5,5,5,5,5,5,5,
3,3,5,5,5,5,5,5,5,5,5,5,5,5,5,5,
0,0,5,5,5,5,5,5,5,5,5,5,5,5,5,5,
0,0,0,5,5,5,5,5,5,5,5,5,5,5,5,5,
0,0,0,0,0,0,0,0,0,0,0,0,0,0,0,0,
0,0,0,0,0,0,0,0,0,0,0,0,0,0,0,0,
0,0,0,0,0,0,0,0,0,0,0,0,0,0,0,0,
0,0,0,0,0,0,0,0,0,0,0,0,0,0,0,0
</chunk>
   <chunk x="32" y="32" width="16" height="16">
5,5,5,5,5,5,5,5,5,5,5,5,5,5,0,0,
5,5,5,5,5,5,5,5,5,5,5,5,5,0,0,0,
5,5,5,5,5,5,5,5,5,5,5,5,5,0,0,0,
5,5,5,5,5,5,5,5,5,5,5,5,5,0,0,0,
5,5,5,5,5,5,5,5,5,5,5,5,5,0,0,0,
5,5,5,5,5,5,5,5,5,5,5,5,0,0,0,0,
5,5,5,5,5,5,5,5,5,5,5,0,0,0,0,0,
5,5,5,5,5,5,5,5,5,5,0,0,0,0,0,0,
5,5,5,5,5,5,5,5,5,0,0,0,0,0,0,0,
5,5,5,5,5,5,5,5,0,0,0,0,0,0,0,0,
5,5,5,5,5,5,5,0,0,0,0,0,0,0,0,0,
5,5,5,5,0,0,0,0,0,0,0,0,0,0,0,0,
0,0,0,0,0,0,0,0,0,0,0,0,0,0,0,0,
0,0,0,0,0,0,0,0,0,0,0,0,0,0,0,0,
0,0,0,0,0,0,0,0,0,0,0,0,0,0,0,0,
0,0,0,0,0,0,0,0,0,0,0,0,0,0,0,0
</chunk>
  </data>
 </layer>
 <objectgroup id="3" name="mapSettings1">
  <object id="3" name="queue: queue1" x="1056" y="512" width="32" height="128">
   <properties>
    <property name="id" value="queue1"/>
    <property name="type" value="queue"/>
   </properties>
  </object>
  <object id="84" name="dropper: dropperStall1" x="96" y="768" width="96" height="96">
   <properties>
    <property name="id" value="dropperStall1"/>
    <property name="target" value="stall1"/>
    <property name="type" value="dropper"/>
   </properties>
  </object>
  <object id="5" name="waypoint → queue1" x="1175" y="572.667">
   <properties>
    <property name="order" type="int" value="0"/>
    <property name="target" value="queue1"/>
    <property name="type" value="waypoint"/>
   </properties>
   <ellipse/>
  </object>
  <object id="8" name="waypoint → queue1" x="1541.67" y="591.667">
   <properties>
    <property name="order" type="int" value="1"/>
    <property name="target" value="queue1"/>
    <property name="type" value="waypoint"/>
   </properties>
   <ellipse/>
  </object>
  <object id="9" name="waypoint → queue1" x="1742" y="755.666">
   <properties>
    <property name="order" type="int" value="2"/>
    <property name="target" value="queue1"/>
    <property name="type" value="waypoint"/>
   </properties>
   <ellipse/>
  </object>
  <object id="55" name="shop: shop2" x="864" y="448" width="65" height="65">
   <properties>
    <property name="id" value="shop2"/>
    <property name="type" value="shop"/>
   </properties>
  </object>
  <object id="184" name="shop: shopBackpack" x="488" y="468" width="65" height="65">
   <properties>
    <property name="id" value="shopBackpack"/>
    <property name="type" value="shop"/>
   </properties>
  </object>
  <object id="56" name="dropper: dropperShop2" x="864" y="454" width="64.5" height="64.5">
   <properties>
    <property name="id" value="dropperShop2"/>
    <property name="target" value="shop2"/>
    <property name="type" value="dropper"/>
   </properties>
  </object>
  <object id="12" name="craft: craftPickaxe" x="537.417" y="68.583" width="32" height="32">
   <properties>
    <property name="id" value="craftPickaxe"/>
    <property name="type" value="craft"/>
   </properties>
  </object>
  <object id="13" name="dropper: dropperCraft" x="521.667" y="52.333" width="64.5" height="64.5">
   <properties>
    <property name="id" value="dropperCraft"/>
    <property name="target" value="craftPickaxe"/>
    <property name="type" value="dropper"/>
   </properties>
  </object>
  <object id="14" x="-25.1663" y="976">
   <properties>
    <property name="id" value="playerStart"/>
   </properties>
   <point/>
  </object>
  <object id="29" name="craft: craftAxe" x="-688.25" y="592.25" width="32" height="32">
   <properties>
    <property name="id" value="craftAxe"/>
    <property name="type" value="craft"/>
   </properties>
  </object>
  <object id="17" name="dropper: craftAxeDropper" x="-704" y="576" width="64.5" height="64.5">
   <properties>
    <property name="id" value="craftAxeDropper"/>
    <property name="target" value="craftAxe"/>
    <property name="type" value="dropper"/>
   </properties>
  </object>
  <object id="391" name="spawner: treeSpawner" x="-210.333" y="336.5">
   <properties>
    <property name="id" value="treeSpawner"/>
    <property name="type" value="spawner"/>
   </properties>
   <polygon points="-237.167,59 -129,160.5 -101.542,197.933 119.158,204.982 124.333,-20 -259.667,-20"/>
  </object>
  <object id="82" name="spawner: stoneSpawner" x="602.666" y="83.166">
   <properties>
    <property name="id" value="stoneSpawner"/>
    <property name="type" value="spawner"/>
   </properties>
   <polygon points="93,-44 -111.667,115 -87.8333,219 230,196 236.167,97.5"/>
  </object>
  <object id="37" name="farm: farm1" x="-224" y="800" width="64" height="64">
   <properties>
    <property name="id" value="farm1"/>
    <property name="type" value="farm"/>
   </properties>
  </object>
  <object id="185" name="farm: farm4" x="-320" y="704" width="64" height="64">
   <properties>
    <property name="id" value="farm4"/>
    <property name="type" value="farm"/>
   </properties>
  </object>
  <object id="186" name="farm: farm5" x="-416" y="800" width="64" height="64">
   <properties>
    <property name="id" value="farm5"/>
    <property name="type" value="farm"/>
   </properties>
  </object>
  <object id="100" name="farm: farm2" x="-320" y="800" width="64" height="64">
   <properties>
    <property name="id" value="farm2"/>
    <property name="type" value="farm"/>
   </properties>
  </object>
  <object id="101" name="farm: farm3" x="-224" y="704" width="64" height="64">
   <properties>
    <property name="id" value="farm3"/>
    <property name="type" value="farm"/>
   </properties>
  </object>
  <object id="39" name="trigger: walkTutorialTrigger" x="-49" y="869.167" width="61.8182" height="61.3352">
   <properties>
    <property name="id" value="walkTutorialTrigger"/>
    <property name="type" value="trigger"/>
   </properties>
  </object>
  <object id="443" name="farmDesk: farmDesk1" x="-122.182" y="676" width="24" height="24">
   <properties>
    <property name="id" value="farmDesk1"/>
    <property name="type" value="farmDesk"/>
   </properties>
  </object>
  <object id="444" name="dropper → farmDesk1" x="-124.727" y="702" width="28.3636" height="32">
   <properties>
    <property name="target" value="farmDesk1"/>
    <property name="type" value="dropper"/>
   </properties>
  </object>
  <object id="41" name="teleporter: farmTeleporter" x="-740.5" y="-75">
   <properties>
    <property name="id" value="farmTeleporter"/>
    <property name="type" value="teleporter"/>
   </properties>
   <point/>
  </object>
  <object id="417" name="polyFence" x="-135.5" y="922">
   <properties>
    <property name="type" value="polyFence"/>
   </properties>
   <polygon points="7.5,-26 -376.5,-26 -376.5,-250 7.5,-250"/>
  </object>
  <object id="418" name="polyDoor" x="-384" y="640" width="128" height="64">
   <properties>
    <property name="type" value="polyDoor"/>
   </properties>
  </object>
  <object id="419" name="polyDoor" x="-85.5" y="768" width="32" height="106.5" rotation="90">
   <properties>
    <property name="type" value="polyDoor"/>
   </properties>
  </object>
  <object id="420" name="polyFence" x="-220" y="933.5">
   <properties>
    <property name="type" value="polyFence"/>
   </properties>
   <polygon points="0,0 96,0 96,96 0,96"/>
  </object>
  <object id="421" name="animalStall: chickenStall" x="-224" y="928" width="104.5" height="109">
   <properties>
    <property name="id" value="chickenStall"/>
    <property name="type" value="animalStall"/>
   </properties>
  </object>
  <object id="422" name="dropper → chickenStall" x="-128" y="928" width="40.7273" height="32">
   <properties>
    <property name="target" value="chickenStall"/>
    <property name="type" value="dropper"/>
   </properties>
  </object>
  <object id="423" name="storage → chickenStall" x="-124" y="997.5" width="32" height="32">
   <properties>
    <property name="target" value="chickenStall"/>
    <property name="type" value="storage"/>
   </properties>
  </object>
  <object id="425" name="polyFence" x="-400.5" y="928">
   <properties>
    <property name="type" value="polyFence"/>
   </properties>
   <polygon points="0,0 96,0 96,96 0,96"/>
  </object>
  <object id="426" name="animalStall: cowStall" x="-404.5" y="922.5" width="104.5" height="109">
   <properties>
    <property name="id" value="cowStall"/>
    <property name="type" value="animalStall"/>
   </properties>
  </object>
  <object id="427" name="dropper → cowStall" x="-304.5" y="928" width="38.1818" height="32">
   <properties>
    <property name="target" value="cowStall"/>
    <property name="type" value="dropper"/>
   </properties>
  </object>
  <object id="428" name="storage → cowStall" x="-304.5" y="992" width="32" height="32">
   <properties>
    <property name="target" value="cowStall"/>
    <property name="type" value="storage"/>
   </properties>
  </object>
 </objectgroup>
 <objectgroup draworder="index" id="12" name="--storeView--stall1"/>
 <objectgroup id="13" name="--storeView--stall1-2" locked="1">
  <object id="353" name="floor" x="-32" y="575.667" width="320" height="448.333">
   <properties>
    <property name="type" value="floor"/>
   </properties>
  </object>
  <object id="356" name="polyWall" x="-98" y="1016">
   <properties>
    <property name="type" value="polyWall"/>
   </properties>
   <polyline points="66,-440 386,-440"/>
  </object>
  <object id="374" name="polyWall" x="-96" y="1440">
   <properties>
    <property name="type" value="polyWall"/>
   </properties>
   <polyline points="64,-416 384,-416 384,-864"/>
  </object>
  <object id="358" name="polyDoor" x="-0.666667" y="719.333" width="96" height="64" rotation="90">
   <properties>
    <property name="isDouble" type="bool" value="true"/>
    <property name="isHigh" type="bool" value="true"/>
    <property name="type" value="polyDoor"/>
   </properties>
  </object>
  <object id="405" name="polyDoor" x="328.667" y="674" width="45.5" height="64" rotation="90">
   <properties>
    <property name="isDouble" type="bool" value="false"/>
    <property name="isHigh" type="bool" value="false"/>
    <property name="type" value="polyDoor"/>
   </properties>
  </object>
  <object id="368" name="polyDoor" x="68.583" y="1004.42" width="116.167" height="31.5">
   <properties>
    <property name="fitToCeiling" type="bool" value="true"/>
    <property name="isHigh" type="bool" value="true"/>
    <property name="isSliding" type="bool" value="true"/>
    <property name="style" value="glass"/>
    <property name="type" value="polyDoor"/>
   </properties>
  </object>
  <object id="375" name="polyWall" x="-41.2727" y="493.788">
   <properties>
    <property name="style" value="glassTop"/>
    <property name="type" value="polyWall"/>
   </properties>
   <polyline points="9.27273,82.2121 9.27273,530.212"/>
  </object>
  <object id="402" name="polyWindow" x="288" y="992" width="64" height="53.5">
   <properties>
    <property name="type" value="polyWindow"/>
   </properties>
  </object>
  <object id="403" name="polyWindow" x="264.667" y="866" width="64" height="53.5">
   <properties>
    <property name="type" value="polyWindow"/>
   </properties>
  </object>
  <object id="406" name="polyWindow" x="264.667" y="738" width="64" height="53.5">
   <properties>
    <property name="type" value="polyWindow"/>
   </properties>
  </object>
  <object id="404" name="polyWindow" x="-7.25" y="991.75" width="64" height="53.5">
   <properties>
    <property name="type" value="polyWindow"/>
   </properties>
  </object>
  <object id="412" gid="55" x="-28.7045" y="710.292" width="28.25" height="17.6563"/>
 </objectgroup>
 <objectgroup draworder="index" id="11" name="--storeSection--stall1-office" opacity="0.8">
  <object id="363" name="floor" x="-28.3333" y="416.167" width="192" height="160">
   <properties>
    <property name="type" value="floor"/>
   </properties>
  </object>
  <object id="210" name="storeSection: storeRoom1" x="-32.0333" y="412.215" width="201.65" height="202.905">
   <properties>
    <property name="id" value="storeRoom1"/>
    <property name="target" value="farmStore1"/>
    <property name="type" value="storeSection"/>
   </properties>
  </object>
  <object id="226" gid="41" x="61.0757" y="459.235" width="13.7727" height="12.8636"/>
  <object id="227" name="hireDesk: hireDesk1" x="57.2497" y="449.811" width="21.3333" height="21.3333">
   <properties>
    <property name="id" value="hireDesk1"/>
    <property name="type" value="hireDesk"/>
   </properties>
  </object>
  <object id="228" name="dropper → hireDesk1" x="22.5837" y="483.5" width="96" height="48">
   <properties>
    <property name="target" value="hireDesk1"/>
    <property name="type" value="dropper"/>
   </properties>
  </object>
  <object id="229" name="dropper → storeRoom1" x="32" y="608" width="64" height="64">
   <properties>
    <property name="target" value="storeRoom1"/>
    <property name="type" value="dropper"/>
   </properties>
  </object>
  <object id="241" gid="47" x="100.667" y="468.167" width="64" height="32" rotation="180"/>
  <object id="264" gid="51" x="-23.5833" y="459.167" width="72.604" height="38.5709"/>
  <object id="361" name="polyWall" x="-26.3333" y="448.167">
   <properties>
    <property name="type" value="polyWall"/>
   </properties>
   <polyline points="190,128 -2,128 -2,-32 190,-32 190,128"/>
  </object>
  <object id="364" name="polyWallExclusion" x="-28.3333" y="565.167" width="190.25" height="40">
   <properties>
    <property name="type" value="polyWallExclusion"/>
   </properties>
  </object>
  <object id="365" name="polyDoor" x="10.6667" y="569.167" width="116" height="31.5">
   <properties>
    <property name="fitToCeiling" type="bool" value="true"/>
    <property name="isHigh" type="bool" value="true"/>
    <property name="isSliding" type="bool" value="true"/>
    <property name="type" value="polyDoor"/>
   </properties>
  </object>
  <object id="388" name="polyWindow" x="-12.6663" y="392.834" width="163" height="49.3333">
   <properties>
    <property name="type" value="polyWindow"/>
   </properties>
  </object>
 </objectgroup>
 <objectgroup draworder="index" id="14" name="--storeSection--stall1-deposit" opacity="0.8">
  <object id="376" name="floor" x="350.333" y="447" width="319" height="192">
   <properties>
    <property name="type" value="floor"/>
   </properties>
  </object>
  <object id="377" name="storeSection: storeRoom2" x="353.333" y="449" width="316" height="202.905">
   <properties>
    <property name="id" value="storeRoom2"/>
    <property name="target" value="farmStore1"/>
    <property name="type" value="storeSection"/>
   </properties>
  </object>
  <object id="381" name="dropper → storeRoom2" x="340.333" y="661.286" width="95" height="66.0477">
   <properties>
    <property name="target" value="storeRoom2"/>
    <property name="type" value="dropper"/>
   </properties>
  </object>
  <object id="384" name="polyWall" x="529.333" y="481.952">
   <properties>
    <property name="type" value="polyWall"/>
   </properties>
   <polyline points="-180,157.048 -180,-34.952 140,-34.952"/>
  </object>
  <object id="385" name="polyWallExclusion" x="350.333" y="610.952" width="98.3667" height="40">
   <properties>
    <property name="type" value="polyWallExclusion"/>
   </properties>
  </object>
  <object id="387" name="polyWindow" x="381.333" y="430.333" width="256" height="49.3333">
   <properties>
    <property name="type" value="polyWindow"/>
   </properties>
  </object>
  <object id="408" gid="53" x="350.333" y="511" width="24" height="24"/>
  <object id="409" gid="54" x="350.333" y="511" width="24" height="28"/>
  <object id="414" name="polyWall" x="533" y="485.667">
   <properties>
    <property name="style" value="glassTop"/>
    <property name="type" value="polyWall"/>
   </properties>
   <polyline points="-181,154.333 136.333,153.333 136.333,-38.6667"/>
  </object>
  <object id="416" name="polyDoor" x="544" y="608" width="45.5" height="64" rotation="90">
   <properties>
    <property name="isDouble" type="bool" value="true"/>
    <property name="isHigh" type="bool" value="false"/>
    <property name="type" value="polyDoor"/>
   </properties>
  </object>
 </objectgroup>
 <objectgroup draworder="index" id="9" name="--store--stall1" locked="1">
  <object id="413" name="clientArea" x="-7.33333" y="611.333">
   <properties>
    <property name="type" value="clientArea"/>
   </properties>
   <polygon points="18,-2 277.334,-4 277.355,278.836 176.5,278.75 152.338,357.1 33.4167,362.833 32,346.667 44.417,251.75 48.333,185.083 23.3333,114.667"/>
  </object>
  <object id="153" name="store: farmStore1" x="-61" y="444.333" width="717.667" height="577">
   <properties>
    <property name="id" value="farmStore1"/>
    <property name="starter" value="stall1"/>
    <property name="type" value="store"/>
   </properties>
  </object>
  <object id="154" name="storeEntrance: farmStore1Entrance" x="224" y="1152" width="64" height="79">
   <properties>
    <property name="id" value="farmStore1Entrance"/>
    <property name="target" value="farmStore1"/>
    <property name="type" value="storeEntrance"/>
   </properties>
  </object>
  <object id="155" name="storeExit: farmStore1Exit" x="32" y="1152" width="64" height="79">
   <properties>
    <property name="id" value="farmStore1Exit"/>
    <property name="target" value="farmStore1"/>
    <property name="type" value="storeExit"/>
   </properties>
  </object>
  <object id="156" name="storeCashier: farmStore1Cashier" x="174.25" y="910.958" width="51.5833" height="69.875">
   <properties>
    <property name="id" value="farmStore1Cashier"/>
    <property name="target" value="farmStore1"/>
    <property name="type" value="storeCashier"/>
   </properties>
  </object>
  <object id="157" name="storeMoneyDrop: farmStore1MoneyDrop" x="229.875" y="935.375" width="36.5" height="45.9773">
   <properties>
    <property name="id" value="farmStore1MoneyDrop"/>
    <property name="target" value="farmStore1"/>
    <property name="type" value="storeMoneyDrop"/>
   </properties>
  </object>
  <object id="193" name="npcPoint → farmStore1Cashier" x="208.182" y="959.822">
   <properties>
    <property name="target" value="farmStore1Cashier"/>
    <property name="type" value="npcPoint"/>
   </properties>
   <point/>
  </object>
  <object id="447" name="npcPoint → farmStore1Cashier" x="201.307" y="899.322">
   <properties>
    <property name="target" value="farmStore1Cashier"/>
    <property name="type" value="clientPoint"/>
   </properties>
   <point/>
  </object>
  <object id="194" name="npcPoint → farmStore1MoneyDrop" x="247.849" y="960.716">
   <properties>
    <property name="target" value="farmStore1MoneyDrop"/>
    <property name="type" value="npcPoint"/>
   </properties>
   <point/>
  </object>
  <object id="115" name="storage: storage1" x="64" y="704" width="32" height="50.6667">
   <properties>
    <property name="id" value="storage1"/>
    <property name="type" value="storage"/>
   </properties>
  </object>
  <object id="424" name="storage: storageEgg" x="-17.5" y="961.5" width="32" height="32">
   <properties>
    <property name="id" value="storageEgg"/>
    <property name="type" value="storage"/>
   </properties>
  </object>
  <object id="429" name="storage: storageMilk" x="-23.5757" y="929.526" width="46.333" height="50.6667" rotation="270">
   <properties>
    <property name="id" value="storageMilk"/>
    <property name="type" value="storage"/>
   </properties>
  </object>
  <object id="445" name="storage: storageButter" x="-23.5419" y="882.25" width="46.333" height="50.6667" rotation="270">
   <properties>
    <property name="id" value="storageButter"/>
    <property name="type" value="storage"/>
   </properties>
  </object>
  <object id="446" name="storage: storageBread" x="-17.5" y="929.5" width="32" height="32">
   <properties>
    <property name="id" value="storageBread"/>
    <property name="type" value="storage"/>
   </properties>
  </object>
  <object id="116" name="storage: storage2" x="96" y="704" width="32" height="50.6667">
   <properties>
    <property name="id" value="storage2"/>
    <property name="type" value="storage"/>
   </properties>
  </object>
  <object id="158" name="storage: storage3" x="128" y="704" width="32" height="50.6667">
   <properties>
    <property name="id" value="storage3"/>
    <property name="type" value="storage"/>
   </properties>
  </object>
  <object id="187" name="storage: storage4" x="160" y="704" width="32" height="50.6667">
   <properties>
    <property name="id" value="storage4"/>
    <property name="type" value="storage"/>
   </properties>
  </object>
  <object id="192" name="storage: trash1" x="251.523" y="614.77" width="32" height="32" rotation="270">
   <properties>
    <property name="id" value="trash1"/>
    <property name="type" value="storage"/>
   </properties>
  </object>
  <object id="188" name="storage: storage5" x="192" y="704" width="32" height="50.6667">
   <properties>
    <property name="id" value="storage5"/>
    <property name="type" value="storage"/>
   </properties>
  </object>
  <object id="389" gid="52" x="163.417" y="909.708" width="67.3333" height="67.3333" rotation="90">
   <properties>
    <property name="target" value="farmStore1Cashier"/>
   </properties>
  </object>
  <object id="415" name="cameraFocus" x="171" y="810">
   <properties>
    <property name="type" value="cameraFocus"/>
   </properties>
   <point/>
  </object>
  <object id="430" x="373" y="847.25" width="128" height="64">
   <properties>
    <property name="id" value="butterStation"/>
    <property name="type" value="mixStation"/>
   </properties>
  </object>
  <object id="438" x="468.75" y="692.75" width="128" height="64">
   <properties>
    <property name="id" value="breadStation"/>
    <property name="type" value="mixStation"/>
   </properties>
  </object>
  <object id="431" x="414.25" y="908.5" width="45" height="39.5">
   <properties>
    <property name="id" value="butterStation"/>
    <property name="type" value="dropper"/>
   </properties>
  </object>
  <object id="437" x="510.25" y="755.75" width="45" height="39.5">
   <properties>
    <property name="id" value="breadStation"/>
    <property name="type" value="dropper"/>
   </properties>
  </object>
  <object id="432" gid="40" x="387" y="902.25" width="96" height="48">
   <properties>
    <property name="target" value="butterStation"/>
   </properties>
  </object>
  <object id="439" gid="40" x="482.75" y="747.75" width="96" height="48">
   <properties>
    <property name="target" value="breadStation"/>
   </properties>
  </object>
  <object id="434" x="389.25" y="865.5" width="28.75" height="28">
   <properties>
    <property name="order" type="int" value="0"/>
    <property name="target" value="butterStation"/>
    <property name="type" value="storage"/>
   </properties>
  </object>
  <object id="442" x="485" y="711" width="28.75" height="28">
   <properties>
    <property name="order" type="int" value="0"/>
    <property name="target" value="breadStation"/>
    <property name="type" value="storage"/>
   </properties>
  </object>
  <object id="441" x="515.5" y="711" width="28.75" height="28">
   <properties>
    <property name="order" type="int" value="1"/>
    <property name="target" value="breadStation"/>
    <property name="type" value="storage"/>
   </properties>
  </object>
  <object id="436" x="452" y="865.25" width="28.75" height="28">
   <properties>
    <property name="order" type="int" value="1"/>
    <property name="target" value="butterStation"/>
    <property name="type" value="dispenser"/>
   </properties>
  </object>
  <object id="440" x="548.75" y="710.75" width="28.75" height="28">
   <properties>
    <property name="order" type="int" value="1"/>
    <property name="target" value="breadStation"/>
    <property name="type" value="dispenser"/>
   </properties>
  </object>
 </objectgroup>
 <objectgroup id="6" name="meshes">
  <object id="95" gid="28" x="992" y="1248" width="80" height="80"/>
  <object id="96" gid="28" x="1056" y="1248" width="80" height="80"/>
  <object id="97" gid="28" x="1120" y="1248" width="80" height="80"/>
  <object id="98" gid="28" x="1184" y="1248" width="80" height="80"/>
  <object id="183" gid="28" x="32" y="1152" width="64" height="66" rotation="90"/>
  <object id="371" gid="28" x="224" y="1216" width="64" height="66" rotation="90"/>
  <object id="373" gid="28" x="224" y="1280" width="64" height="66" rotation="90"/>
  <object id="369" gid="28" x="224" y="1152" width="64" height="66" rotation="90"/>
  <object id="370" gid="28" x="32" y="1215" width="65" height="66" rotation="90"/>
  <object id="372" gid="28" x="32" y="1279" width="66" height="66" rotation="90"/>
 </objectgroup>
 <objectgroup id="8" name="backup" visible="0" locked="1">
  <object id="24" gid="28" x="32.25" y="516.75" width="48" height="40.5"/>
  <object id="25" gid="28" x="80.125" y="516.5" width="48" height="40.5"/>
  <object id="26" name="gate: gateTest" x="33" y="464.5" width="64" height="32" rotation="90">
   <properties>
    <property name="id" value="gateTest"/>
    <property name="type" value="gate"/>
   </properties>
  </object>
  <object id="27" name="dropper: gateTestDropper" x="-32" y="464" width="96" height="64.5">
   <properties>
    <property name="id" value="gateTestDropper"/>
    <property name="target" value="gateTest"/>
    <property name="type" value="dropper"/>
   </properties>
  </object>
  <object id="36" name="spawner: treeSpawner" x="-251.333" y="119.333">
   <properties>
    <property name="id" value="treeSpawner"/>
    <property name="type" value="spawner"/>
   </properties>
   <polygon points="0,0 -60.6667,58 -19.3333,130 108,132 106.667,58"/>
  </object>
  <object id="46" name="gate: gateAxe" x="-554.5" y="770" width="64" height="32">
   <properties>
    <property name="id" value="gateAxe"/>
    <property name="type" value="gate"/>
   </properties>
  </object>
  <object id="65" name="dropper: dropper2" x="1028.83" y="-661.25" width="64.5" height="64.5">
   <properties>
    <property name="id" value="dropper2"/>
    <property name="target" value="floor1"/>
    <property name="type" value="dropper"/>
   </properties>
  </object>
  <object id="67" gid="28" x="974.667" y="-656" width="80" height="80">
   <properties>
    <property name="id" value="floor1"/>
    <property name="offsetY" type="float" value="-0.1"/>
    <property name="type" value="building"/>
    <property name="useOwnMesh" type="bool" value="true"/>
   </properties>
  </object>
  <object id="68" gid="28" x="1070.67" y="-656" width="80" height="80">
   <properties>
    <property name="id" value="floor1"/>
    <property name="offsetY" type="float" value="-0.1"/>
    <property name="type" value="building"/>
    <property name="useOwnMesh" type="bool" value="true"/>
   </properties>
  </object>
  <object id="42" name="mart: farmShop" x="3.00033" y="-86" width="32" height="32">
   <properties>
    <property name="id" value="farmShop"/>
    <property name="type" value="mart"/>
   </properties>
  </object>
  <object id="43" name="dropper: farmShopArea" x="-12.6667" y="-68.667" width="64" height="64">
   <properties>
    <property name="id" value="farmShopArea"/>
    <property name="target" value="farmShop"/>
    <property name="type" value="dropper"/>
   </properties>
  </object>
  <object id="45" name="craftTable: forge1" x="-59.5833" y="-59.0833" width="32" height="32">
   <properties>
    <property name="id" value="forge1"/>
    <property name="type" value="craftTable"/>
   </properties>
  </object>
  <object id="44" name="dropper: forge1dropper" x="-75.3333" y="-75.3333" width="64.5" height="64.5">
   <properties>
    <property name="id" value="forge1dropper"/>
    <property name="target" value="forge1"/>
    <property name="type" value="dropper"/>
   </properties>
  </object>
  <object id="4" name="dropper: dropper1" x="-225.333" y="194" width="64.5" height="64.5">
   <properties>
    <property name="id" value="dropper1"/>
    <property name="target" value="tower"/>
    <property name="type" value="dropper"/>
   </properties>
  </object>
  <object id="49" gid="29" x="-231" y="223.333" width="75.6667" height="75.6667">
   <properties>
    <property name="id" value="tower"/>
    <property name="type" value="building"/>
    <property name="useOwnMesh" type="bool" value="true"/>
   </properties>
  </object>
  <object id="78" name="craft: craftShovel" x="-910.25" y="194.25" width="32" height="32">
   <properties>
    <property name="id" value="craftShovel"/>
    <property name="type" value="craft"/>
   </properties>
  </object>
  <object id="77" name="dropper: dropperCraftShovel" x="-926" y="178" width="64.5" height="64.5">
   <properties>
    <property name="id" value="dropperCraftShovel"/>
    <property name="target" value="craftShovel"/>
    <property name="type" value="dropper"/>
   </properties>
  </object>
  <object id="31" name="dropper: craftRopeDropper" x="-992" y="-64" width="64.5" height="64.5">
   <properties>
    <property name="id" value="craftRopeDropper"/>
    <property name="target" value="craftRope"/>
    <property name="type" value="dropper"/>
   </properties>
  </object>
  <object id="30" name="craft: craftRope" x="-976.25" y="-47.75" width="32" height="32">
   <properties>
    <property name="id" value="craftRope"/>
    <property name="type" value="craft"/>
   </properties>
  </object>
  <object id="80" name="craft: craftKnife" x="-826.25" y="68.9167" width="32" height="32">
   <properties>
    <property name="id" value="craftKnife"/>
    <property name="type" value="craft"/>
   </properties>
  </object>
  <object id="79" name="dropper: dropperCraftKnife" x="-842" y="52.6667" width="64.5" height="64.5">
   <properties>
    <property name="id" value="dropperCraftKnife"/>
    <property name="target" value="craftKnife"/>
    <property name="type" value="dropper"/>
   </properties>
  </object>
  <object id="2" name="gate: gate1" x="160" y="-480" width="192" height="32">
   <properties>
    <property name="id" value="gate1"/>
    <property name="type" value="gate"/>
   </properties>
  </object>
  <object id="32" name="spawner: animalSpawner1" x="-199.834" y="-473">
   <properties>
    <property name="id" value="animalSpawner1"/>
    <property name="type" value="spawner"/>
   </properties>
   <polygon points="187,17 -73,27.5 -46,291 159.762,320.597 261,242"/>
  </object>
  <object id="74" name="craft: craftHammer" x="-623.25" y="-109.75" width="32" height="32">
   <properties>
    <property name="id" value="craftHammer"/>
    <property name="type" value="craft"/>
   </properties>
  </object>
  <object id="75" name="dropper: dropperCraftHammer" x="-639" y="-126" width="64.5" height="64.5">
   <properties>
    <property name="id" value="dropperCraftHammer"/>
    <property name="target" value="craftHammer"/>
    <property name="type" value="dropper"/>
   </properties>
  </object>
  <object id="58" name="queue: queue2" x="13.6966" y="387.333" width="99.6364" height="32">
   <properties>
    <property name="id" value="queue2"/>
    <property name="type" value="queue"/>
   </properties>
  </object>
  <object id="59" name="waypoint → queue2" x="95.121" y="373.303">
   <properties>
    <property name="order" type="int" value="0"/>
    <property name="target" value="queue2"/>
    <property name="type" value="waypoint"/>
   </properties>
   <ellipse/>
  </object>
  <object id="60" name="waypoint → queue2" x="94.121" y="214.969">
   <properties>
    <property name="order" type="int" value="1"/>
    <property name="target" value="queue2"/>
    <property name="type" value="waypoint"/>
   </properties>
   <ellipse/>
  </object>
  <object id="61" name="waypoint → queue2" x="223.121" y="215.302">
   <properties>
    <property name="order" type="int" value="2"/>
    <property name="target" value="queue2"/>
    <property name="type" value="waypoint"/>
   </properties>
   <ellipse/>
  </object>
  <object id="62" name="waypoint → queue2" x="222.455" y="374.636">
   <properties>
    <property name="order" type="int" value="-1"/>
    <property name="target" value="queue2"/>
    <property name="type" value="waypoint"/>
   </properties>
   <ellipse/>
  </object>
  <object id="63" name="waypoint → queue2" x="223.121" y="246.636">
   <properties>
    <property name="order" type="int" value="-2"/>
    <property name="target" value="queue2"/>
    <property name="type" value="waypoint"/>
   </properties>
   <ellipse/>
  </object>
  <object id="81" name="spawner: basicSpawner" x="-592.333" y="837.333">
   <properties>
    <property name="id" value="basicSpawner"/>
    <property name="type" value="spawner"/>
   </properties>
   <polygon points="-100.333,-29.6667 -100.333,152.5 19.1667,127.167 45.3337,94.8333"/>
  </object>
  <object id="113" name="spawner: basicSpawner" x="-319.667" y="813.999">
   <properties>
    <property name="id" value="basicSpawner"/>
    <property name="type" value="spawner"/>
   </properties>
   <polygon points="-100.333,-29.6667 -93.6666,133.167 29.8333,166.5 38.667,-84.5"/>
  </object>
  <object id="10" name="shop: shop1" x="-128.25" y="456" width="65" height="65">
   <properties>
    <property name="id" value="shop1"/>
    <property name="type" value="shop"/>
   </properties>
  </object>
  <object id="11" name="dropper: dropperShop1" x="-128.25" y="462" width="64.5" height="64.5">
   <properties>
    <property name="id" value="dropperShop1"/>
    <property name="target" value="shop1"/>
    <property name="type" value="dropper"/>
   </properties>
  </object>
  <object id="117" name="dropper: dropperStorage1" x="172.334" y="650.667" width="64.5" height="64.5">
   <properties>
    <property name="id" value="dropperStorage1"/>
    <property name="target" value="storage1"/>
    <property name="type" value="dropper"/>
   </properties>
  </object>
  <object id="112" name="dropper: gateWoodDropper" x="-543.083" y="960.417" width="62.875" height="64" rotation="270">
   <properties>
    <property name="id" value="gateWoodDropper"/>
    <property name="target" value="gateWood"/>
    <property name="type" value="dropper"/>
   </properties>
  </object>
  <object id="114" name="gate: gateWood" x="-543.083" y="896.417" width="64" height="32">
   <properties>
    <property name="id" value="gateWood"/>
    <property name="type" value="gate"/>
   </properties>
  </object>
 </objectgroup>
</map>
